(Created with emc2b post processor 2016/08/12 19:58)
G61
(tool change to 8 mm Fraise de Finition)
T5 M06 G43
G17 G90 G21
(ENTITIES 0)
G00 X182 Y-6 S7000 M03
Z1
G01 Z-1.9 F100
G02 X182 Y-4 I0 J1 F800
G01 X364 Y-4 Z-1.9 
G03 X368 Y0 Z-1.9 I0 J4 
G01 X368 Y230 Z-1.9 
G03 X364 Y234 Z-1.9 I-4 J0 
G01 X0 Y234 Z-1.9 
G03 X-4 Y230 Z-1.9 I0 J-4 
G01 X-4 Y0 Z-1.9 
G03 X0 Y-4 Z-1.9 I4 J0 
G01 X182 Y-4 Z-1.9 
G02 X182 Y-6 I0 J-1 
G01 Z-3.8 F100
G02 X182 Y-4 I0 J1 F800
G01 X364 Y-4 Z-3.8 
G03 X368 Y0 Z-3.8 I0 J4 
G01 X368 Y230 Z-3.8 
G03 X364 Y234 Z-3.8 I-4 J0 
G01 X0 Y234 Z-3.8 
G03 X-4 Y230 Z-3.8 I0 J-4 
G01 X-4 Y0 Z-3.8 
G03 X0 Y-4 Z-3.8 I4 J0 
G01 X182 Y-4 Z-3.8 
G02 X182 Y-6 I0 J-1 
G01 Z-5.7 F100
G02 X182 Y-4 I0 J1 F800
G01 X364 Y-4 Z-5.7 
G03 X368 Y0 Z-5.7 I0 J4 
G01 X368 Y230 Z-5.7 
G03 X364 Y234 Z-5.7 I-4 J0 
G01 X0 Y234 Z-5.7 
G03 X-4 Y230 Z-5.7 I0 J-4 
G01 X-4 Y0 Z-5.7 
G03 X0 Y-4 Z-5.7 I4 J0 
G01 X182 Y-4 Z-5.7 
G02 X182 Y-6 I0 J-1 
G01 Z-7.6 F100
G02 X182 Y-4 I0 J1 F800
G01 X364 Y-4 Z-7.6 
G03 X368 Y0 Z-7.6 I0 J4 
G01 X368 Y230 Z-7.6 
G03 X364 Y234 Z-7.6 I-4 J0 
G01 X0 Y234 Z-7.6 
G03 X-4 Y230 Z-7.6 I0 J-4 
G01 X-4 Y0 Z-7.6 
G03 X0 Y-4 Z-7.6 I4 J0 
G01 X182 Y-4 Z-7.6 
G02 X182 Y-6 I0 J-1 
G01 Z-9.5 F100
G02 X182 Y-4 I0 J1 F800
G01 X364 Y-4 Z-9.5 
G03 X368 Y0 Z-9.5 I0 J4 
G01 X368 Y230 Z-9.5 
G03 X364 Y234 Z-9.5 I-4 J0 
G01 X0 Y234 Z-9.5 
G03 X-4 Y230 Z-9.5 I0 J-4 
G01 X-4 Y0 Z-9.5 
G03 X0 Y-4 Z-9.5 I4 J0 
G01 X182 Y-4 Z-9.5 
G02 X182 Y-6 I0 J-1 
G01 Z-11.4 F100
G02 X182 Y-4 I0 J1 F800
G01 X364 Y-4 Z-11.4 
G03 X368 Y0 Z-11.4 I0 J4 
G01 X368 Y230 Z-11.4 
G03 X364 Y234 Z-11.4 I-4 J0 
G01 X0 Y234 Z-11.4 
G03 X-4 Y230 Z-11.4 I0 J-4 
G01 X-4 Y0 Z-11.4 
G03 X0 Y-4 Z-11.4 I4 J0 
G01 X182 Y-4 Z-11.4 
G02 X182 Y-6 I0 J-1 
G01 Z-13.3 F100
G02 X182 Y-4 I0 J1 F800
G01 X364 Y-4 Z-13.3 
G03 X368 Y0 Z-13.3 I0 J4 
G01 X368 Y230 Z-13.3 
G03 X364 Y234 Z-13.3 I-4 J0 
G01 X0 Y234 Z-13.3 
G03 X-4 Y230 Z-13.3 I0 J-4 
G01 X-4 Y0 Z-13.3 
G03 X0 Y-4 Z-13.3 I4 J0 
G01 X182 Y-4 Z-13.3 
G02 X182 Y-6 I0 J-1 
G01 Z-15.2 F100
G02 X182 Y-4 I0 J1 F800
G01 X364 Y-4 Z-15.2 
G03 X368 Y0 Z-15.2 I0 J4 
G01 X368 Y230 Z-15.2 
G03 X364 Y234 Z-15.2 I-4 J0 
G01 X0 Y234 Z-15.2 
G03 X-4 Y230 Z-15.2 I0 J-4 
G01 X-4 Y0 Z-15.2 
G03 X0 Y-4 Z-15.2 I4 J0 
G01 X182 Y-4 Z-15.2 
G02 X182 Y-6 I0 J-1 
G01 Z-17.1 F100
G02 X182 Y-4 I0 J1 F800
G01 X235.443 Y-4 Z-17.1 
X235.543 Y-4 Z-17 
X253.543 Y-4 Z-17 
X253.643 Y-4 Z-17.1 
X364 Y-4 Z-17.1 
G03 X368 Y0 Z-17.1 I0 J4 
G01 X368 Y113.814 Z-17.1 
X368 Y113.914 Z-17 
X368 Y131.914 Z-17 
X368 Y132.014 Z-17.1 
X368 Y230 Z-17.1 
G03 X364 Y234 Z-17.1 I-4 J0 
G01 X191.752 Y234 Z-17.1 
X191.652 Y234 Z-17 
X173.652 Y234 Z-17 
X173.552 Y234 Z-17.1 
X0 Y234 Z-17.1 
G03 X-4 Y230 Z-17.1 I0 J-4 
G01 X-4 Y125.134 Z-17.1 
X-4 Y125.034 Z-17 
X-4 Y107.034 Z-17 
X-4 Y106.934 Z-17.1 
X-4 Y0 Z-17.1 
G03 X0 Y-4 Z-17.1 I4 J0 
G01 X182 Y-4 Z-17.1 
G02 X182 Y-6 I0 J-1 
G01 Z-19 F100
G02 X182 Y-4 I0 J1 F800
G01 X233.543 Y-4 Z-19 
X235.543 Y-4 Z-17 
X253.543 Y-4 Z-17 
X255.543 Y-4 Z-19 
X364 Y-4 Z-19 
G03 X368 Y0 Z-19 I0 J4 
G01 X368 Y111.914 Z-19 
X368 Y113.914 Z-17 
X368 Y131.914 Z-17 
X368 Y133.914 Z-19 
X368 Y230 Z-19 
G03 X364 Y234 Z-19 I-4 J0 
G01 X193.652 Y234 Z-19 
X191.652 Y234 Z-17 
X173.652 Y234 Z-17 
X171.652 Y234 Z-19 
X0 Y234 Z-19 
G03 X-4 Y230 Z-19 I0 J-4 
G01 X-4 Y127.034 Z-19 
X-4 Y125.034 Z-17 
X-4 Y107.034 Z-17 
X-4 Y105.034 Z-19 
X-4 Y0 Z-19 
G03 X0 Y-4 Z-19 I4 J0 
G01 X182 Y-4 Z-19 
G02 X182 Y-6 I0 J-1 
G00 Z10
T0 M06 M02
