(Created with emc2b post processor 2016/08/14 11:27)
G61
(tool change to 6 mm Fraise à Rainurer)
T3 M06 G43
G17 G90 G21
G00 Z10 S7000 M03
X342 Y502
Z1
G01 Z-2 F100
X342 Y-2 F800
X293 Y-2 
X293 Y502 
X342 Y502 
X336.5 Y496.5 
X336.5 Y3.5 
X298.5 Y3.5 
X298.5 Y496.5 
X336.5 Y496.5 
X331 Y491 
X331 Y9 
X304 Y9 
X304 Y491 
X331 Y491 
X325.5 Y485.5 
X325.5 Y14.5 
X309.5 Y14.5 
X309.5 Y485.5 
X325.5 Y485.5 
X320 Y480 
X320 Y20 
X315 Y20 
X315 Y480 
X320 Y480 
G00 Z10
X47 Y502 S7000 M03
Z1
G01 Z-2 F100
X47 Y-2 F800
X-2 Y-2 
X-2 Y502 
X47 Y502 
X41.5 Y496.5 
X41.5 Y3.5 
X3.5 Y3.5 
X3.5 Y496.5 
X41.5 Y496.5 
X36 Y491 
X36 Y9 
X9 Y9 
X9 Y491 
X36 Y491 
X30.5 Y485.5 
X30.5 Y14.5 
X14.5 Y14.5 
X14.5 Y485.5 
X30.5 Y485.5 
X25 Y480 
X25 Y20 
X20 Y20 
X20 Y480 
X25 Y480 
G00 Z10
(Esquisse 0)
X290 Y12.5 S7000 M03
Z1
G01 Z-2 F100
X50 Y12.5 F800
G00 Z10
(Esquisse 0)
G90X50 Y37.5
Z1
G01 Z-2 F100
X290 Y37.5 F800
G00 Z10
(Esquisse 0)
G90X290 Y62.5
Z1
G01 Z-2 F100
X50 Y62.5 F800
G00 Z10
(Esquisse 0)
G90X50 Y87.5
Z1
G01 Z-2 F100
X290 Y87.5 F800
G00 Z10
(Esquisse 0)
G90X290 Y112.5
Z1
G01 Z-2 F100
X50 Y112.5 F800
G00 Z10
(Esquisse 0)
G90X50 Y137.5
Z1
G01 Z-2 F100
X290 Y137.5 F800
G00 Z10
(Esquisse 0)
G90X290 Y162.5
Z1
G01 Z-2 F100
X50 Y162.5 F800
G00 Z10
(Esquisse 0)
G90X50 Y187.5
Z1
G01 Z-2 F100
X290 Y187.5 F800
G00 Z10
(Esquisse 0)
G90X290 Y212.5
Z1
G01 Z-2 F100
X50 Y212.5 F800
G00 Z10
(Esquisse 0)
G90X50 Y237.5
Z1
G01 Z-2 F100
X290 Y237.5 F800
G00 Z10
(Esquisse 0)
G90X290 Y262.5
Z1
G01 Z-2 F100
X50 Y262.5 F800
G00 Z10
(Esquisse 0)
G90X50 Y287.5
Z1
G01 Z-2 F100
X290 Y287.5 F800
G00 Z10
(Esquisse 0)
G90X290 Y312.5
Z1
G01 Z-2 F100
X50 Y312.5 F800
G00 Z10
(Esquisse 0)
G90X50 Y337.5
Z1
G01 Z-2 F100
X290 Y337.5 F800
G00 Z10
(Esquisse 0)
G90X290 Y362.5
Z1
G01 Z-2 F100
X50 Y362.5 F800
G00 Z10
(Esquisse 0)
G90X50 Y387.5
Z1
G01 Z-2 F100
X290 Y387.5 F800
G00 Z10
(Esquisse 0)
G90X290 Y412.5
Z1
G01 Z-2 F100
X50 Y412.5 F800
G00 Z10
(Esquisse 0)
G90X50 Y437.5
Z1
G01 Z-2 F100
X290 Y437.5 F800
G00 Z10
(Esquisse 0)
G90X290 Y462.5
Z1
G01 Z-2 F100
X50 Y462.5 F800
G00 Z10
(Esquisse 0)
G90X50 Y487.5
Z1
G01 Z-2 F100
X290 Y487.5 F800
G00 Z10
(Esquisse 0)
G90X57.5 Y0
Z1
G01 Z-2 F100
X57.5 Y500 F800
G00 Z10
(Esquisse 0)
G90X82.5 Y500
Z1
G01 Z-2 F100
X82.5 Y0 F800
G00 Z10
(Esquisse 0)
G90X107.5 Y0
Z1
G01 Z-2 F100
X107.5 Y500 F800
G00 Z10
(Esquisse 0)
G90X132.5 Y500
Z1
G01 Z-2 F100
X132.5 Y0 F800
G00 Z10
(Esquisse 0)
G90X157.5 Y0
Z1
G01 Z-2 F100
X157.5 Y500 F800
G00 Z10
(Esquisse 0)
G90X182.5 Y500
Z1
G01 Z-2 F100
X182.5 Y0 F800
G00 Z10
(Esquisse 0)
G90X207.5 Y0
Z1
G01 Z-2 F100
X207.5 Y500 F800
G00 Z10
(Esquisse 0)
G90X232.5 Y500
Z1
G01 Z-2 F100
X232.5 Y0 F800
G00 Z10
(Esquisse 0)
G90X257.5 Y0
Z1
G01 Z-2 F100
X257.5 Y500 F800
G00 Z10
(Esquisse 0)
G90X282.5 Y500
Z1
G01 Z-2 F100
X282.5 Y0 F800
G00 Z10
(tool change to 6 mm Foret)
T4 M06 G43
G90
X7.5 Y487.5 S7000 M03
G83 Q13 G98 X7.5 Y487.5 Z-24 R-1 F100
X32.5 Y487.5 
X57.5 Y487.5 
X82.5 Y487.5 
X107.5 Y487.5 
X132.5 Y487.5 
X157.5 Y487.5 
X182.5 Y487.5 
X207.5 Y487.5 
X232.5 Y487.5 
X257.5 Y487.5 
X282.5 Y487.5 
X307.5 Y487.5 
X332.5 Y487.5 
X332.5 Y462.5 
X307.5 Y462.5 
X282.5 Y462.5 
X257.5 Y462.5 
X232.5 Y462.5 
X207.5 Y462.5 
X182.5 Y462.5 
X157.5 Y462.5 
X132.5 Y462.5 
X107.5 Y462.5 
X82.5 Y462.5 
X57.5 Y462.5 
X32.5 Y462.5 
X7.5 Y462.5 
X7.5 Y437.5 
X32.5 Y437.5 
X57.5 Y437.5 
X82.5 Y437.5 
X107.5 Y437.5 
X132.5 Y437.5 
X157.5 Y437.5 
X182.5 Y437.5 
X207.5 Y437.5 
X232.5 Y437.5 
X257.5 Y437.5 
X282.5 Y437.5 
X307.5 Y437.5 
X332.5 Y437.5 
X332.5 Y412.5 
X307.5 Y412.5 
X282.5 Y412.5 
X257.5 Y412.5 
X232.5 Y412.5 
X207.5 Y412.5 
X182.5 Y412.5 
X157.5 Y412.5 
X132.5 Y412.5 
X107.5 Y412.5 
X82.5 Y412.5 
X57.5 Y412.5 
X32.5 Y412.5 
X7.5 Y412.5 
X7.5 Y387.5 
X32.5 Y387.5 
X57.5 Y387.5 
X82.5 Y387.5 
X107.5 Y387.5 
X132.5 Y387.5 
X157.5 Y387.5 
X182.5 Y387.5 
X207.5 Y387.5 
X232.5 Y387.5 
X257.5 Y387.5 
X282.5 Y387.5 
X307.5 Y387.5 
X332.5 Y387.5 
X332.5 Y362.5 
X307.5 Y362.5 
X282.5 Y362.5 
X257.5 Y362.5 
X232.5 Y362.5 
X207.5 Y362.5 
X182.5 Y362.5 
X157.5 Y362.5 
X132.5 Y362.5 
X107.5 Y362.5 
X82.5 Y362.5 
X57.5 Y362.5 
X32.5 Y362.5 
X7.5 Y362.5 
X7.5 Y337.5 
X32.5 Y337.5 
X57.5 Y337.5 
X82.5 Y337.5 
X107.5 Y337.5 
X132.5 Y337.5 
X157.5 Y337.5 
X182.5 Y337.5 
X207.5 Y337.5 
X232.5 Y337.5 
X257.5 Y337.5 
X282.5 Y337.5 
X307.5 Y337.5 
X332.5 Y337.5 
X332.5 Y312.5 
X307.5 Y312.5 
X282.5 Y312.5 
X257.5 Y312.5 
X232.5 Y312.5 
X207.5 Y312.5 
X182.5 Y312.5 
X157.5 Y312.5 
X132.5 Y312.5 
X107.5 Y312.5 
X82.5 Y312.5 
X57.5 Y312.5 
X32.5 Y312.5 
X7.5 Y312.5 
X7.5 Y287.5 
X32.5 Y287.5 
X57.5 Y287.5 
X82.5 Y287.5 
X107.5 Y287.5 
X132.5 Y287.5 
X157.5 Y287.5 
X182.5 Y287.5 
X207.5 Y287.5 
X232.5 Y287.5 
X257.5 Y287.5 
X282.5 Y287.5 
X307.5 Y287.5 
X332.5 Y287.5 
X332.5 Y262.5 
X307.5 Y262.5 
X282.5 Y262.5 
X257.5 Y262.5 
X232.5 Y262.5 
X207.5 Y262.5 
X182.5 Y262.5 
X157.5 Y262.5 
X132.5 Y262.5 
X107.5 Y262.5 
X82.5 Y262.5 
X57.5 Y262.5 
X32.5 Y262.5 
X7.5 Y262.5 
X7.5 Y237.5 
X32.5 Y237.5 
X57.5 Y237.5 
X82.5 Y237.5 
X107.5 Y237.5 
X132.5 Y237.5 
X157.5 Y237.5 
X182.5 Y237.5 
X207.5 Y237.5 
X232.5 Y237.5 
X257.5 Y237.5 
X282.5 Y237.5 
X307.5 Y237.5 
X332.5 Y237.5 
X332.5 Y212.5 
X307.5 Y212.5 
X282.5 Y212.5 
X257.5 Y212.5 
X232.5 Y212.5 
X207.5 Y212.5 
X182.5 Y212.5 
X157.5 Y212.5 
X132.5 Y212.5 
X107.5 Y212.5 
X82.5 Y212.5 
X57.5 Y212.5 
X32.5 Y212.5 
X7.5 Y212.5 
X7.5 Y187.5 
X32.5 Y187.5 
X57.5 Y187.5 
X82.5 Y187.5 
X107.5 Y187.5 
X132.5 Y187.5 
X157.5 Y187.5 
X182.5 Y187.5 
X207.5 Y187.5 
X232.5 Y187.5 
X257.5 Y187.5 
X282.5 Y187.5 
X307.5 Y187.5 
X332.5 Y187.5 
X332.5 Y162.5 
X307.5 Y162.5 
X282.5 Y162.5 
X257.5 Y162.5 
X232.5 Y162.5 
X207.5 Y162.5 
X182.5 Y162.5 
X157.5 Y162.5 
X132.5 Y162.5 
X107.5 Y162.5 
X82.5 Y162.5 
X57.5 Y162.5 
X32.5 Y162.5 
X7.5 Y162.5 
X7.5 Y137.5 
X32.5 Y137.5 
X57.5 Y137.5 
X82.5 Y137.5 
X107.5 Y137.5 
X132.5 Y137.5 
X157.5 Y137.5 
X182.5 Y137.5 
X207.5 Y137.5 
X232.5 Y137.5 
X257.5 Y137.5 
X282.5 Y137.5 
X307.5 Y137.5 
X332.5 Y137.5 
X332.5 Y112.5 
X307.5 Y112.5 
X282.5 Y112.5 
X257.5 Y112.5 
X232.5 Y112.5 
X207.5 Y112.5 
X182.5 Y112.5 
X157.5 Y112.5 
X132.5 Y112.5 
X107.5 Y112.5 
X82.5 Y112.5 
X57.5 Y112.5 
X32.5 Y112.5 
X7.5 Y112.5 
X7.5 Y87.5 
X32.5 Y87.5 
X57.5 Y87.5 
X82.5 Y87.5 
X107.5 Y87.5 
X132.5 Y87.5 
X157.5 Y87.5 
X182.5 Y87.5 
X207.5 Y87.5 
X232.5 Y87.5 
X257.5 Y87.5 
X282.5 Y87.5 
X307.5 Y87.5 
X332.5 Y87.5 
X332.5 Y62.5 
X307.5 Y62.5 
X282.5 Y62.5 
X257.5 Y62.5 
X232.5 Y62.5 
X207.5 Y62.5 
X182.5 Y62.5 
X157.5 Y62.5 
X132.5 Y62.5 
X107.5 Y62.5 
X82.5 Y62.5 
X57.5 Y62.5 
X32.5 Y62.5 
X7.5 Y62.5 
X7.5 Y37.5 
X32.5 Y37.5 
X57.5 Y37.5 
X82.5 Y37.5 
X107.5 Y37.5 
X132.5 Y37.5 
X157.5 Y37.5 
X182.5 Y37.5 
X207.5 Y37.5 
X232.5 Y37.5 
X257.5 Y37.5 
X282.5 Y37.5 
X307.5 Y37.5 
X332.5 Y37.5 
X332.5 Y12.5 
X307.5 Y12.5 
X282.5 Y12.5 
X257.5 Y12.5 
X232.5 Y12.5 
X207.5 Y12.5 
X182.5 Y12.5 
X157.5 Y12.5 
X132.5 Y12.5 
X107.5 Y12.5 
G80
(tool change to 6 mm Fraise à Rainurer)
T3 M06 G43
(Esquisse 0)
G00 X32.712 Y462.712 S7000 M03
Z1
G01 Z-13 F400
G02 X33.065 Y463.065 I0.176 J0.176 F500
X33.3 Y462.5 I-0.565 J-0.565 
X32.5 Y461.7 I-0.8 J0 
X31.7 Y462.5 I0 J0.8 
X32.5 Y463.3 I0.8 J0 
X33.065 Y463.065 I0 J-0.8 
X32.712 Y462.712 I-0.176 J-0.176 
G00 Z10
(Esquisse 0)
G90X32.712 Y437.712
Z1
G01 Z-13 F400
G02 X33.065 Y438.065 I0.176 J0.176 F500
X33.3 Y437.5 I-0.565 J-0.565 
X32.5 Y436.7 I-0.8 J0 
X31.7 Y437.5 I0 J0.8 
X32.5 Y438.3 I0.8 J0 
X33.065 Y438.065 I0 J-0.8 
X32.712 Y437.712 I-0.176 J-0.176 
G00 Z10
(Esquisse 0)
G90X32.712 Y412.712
Z1
G01 Z-13 F400
G02 X33.065 Y413.065 I0.176 J0.176 F500
X33.3 Y412.5 I-0.565 J-0.565 
X32.5 Y411.7 I-0.8 J0 
X31.7 Y412.5 I0 J0.8 
X32.5 Y413.3 I0.8 J0 
X33.065 Y413.065 I0 J-0.8 
X32.712 Y412.712 I-0.176 J-0.176 
G00 Z10
(Esquisse 0)
G90X32.712 Y387.712
Z1
G01 Z-13 F400
G02 X33.065 Y388.065 I0.176 J0.176 F500
X33.3 Y387.5 I-0.565 J-0.565 
X32.5 Y386.7 I-0.8 J0 
X31.7 Y387.5 I0 J0.8 
X32.5 Y388.3 I0.8 J0 
X33.065 Y388.065 I0 J-0.8 
X32.712 Y387.712 I-0.176 J-0.176 
G00 Z10
(Esquisse 0)
G90X32.712 Y362.712
Z1
G01 Z-13 F400
G02 X33.065 Y363.065 I0.176 J0.176 F500
X33.3 Y362.5 I-0.565 J-0.565 
X32.5 Y361.7 I-0.8 J0 
X31.7 Y362.5 I0 J0.8 
X32.5 Y363.3 I0.8 J0 
X33.065 Y363.065 I0 J-0.8 
X32.712 Y362.712 I-0.176 J-0.176 
G00 Z10
(Esquisse 0)
G90X32.712 Y337.712
Z1
G01 Z-13 F400
G02 X33.065 Y338.065 I0.176 J0.176 F500
X33.3 Y337.5 I-0.565 J-0.565 
X32.5 Y336.7 I-0.8 J0 
X31.7 Y337.5 I0 J0.8 
X32.5 Y338.3 I0.8 J0 
X33.065 Y338.065 I0 J-0.8 
X32.712 Y337.712 I-0.176 J-0.176 
G00 Z10
(Esquisse 0)
G90X32.712 Y312.712
Z1
G01 Z-13 F400
G02 X33.065 Y313.065 I0.176 J0.176 F500
X33.3 Y312.5 I-0.565 J-0.565 
X32.5 Y311.7 I-0.8 J0 
X31.7 Y312.5 I0 J0.8 
X32.5 Y313.3 I0.8 J0 
X33.065 Y313.065 I0 J-0.8 
X32.712 Y312.712 I-0.176 J-0.176 
G00 Z10
(Esquisse 0)
G90X32.712 Y287.712
Z1
G01 Z-13 F400
G02 X33.065 Y288.065 I0.176 J0.176 F500
X33.3 Y287.5 I-0.565 J-0.565 
X32.5 Y286.7 I-0.8 J0 
X31.7 Y287.5 I0 J0.8 
X32.5 Y288.3 I0.8 J0 
X33.065 Y288.065 I0 J-0.8 
X32.712 Y287.712 I-0.176 J-0.176 
G00 Z10
(Esquisse 0)
G90X32.712 Y262.712
Z1
G01 Z-13 F400
G02 X33.065 Y263.065 I0.176 J0.176 F500
X33.3 Y262.5 I-0.565 J-0.565 
X32.5 Y261.7 I-0.8 J0 
X31.7 Y262.5 I0 J0.8 
X32.5 Y263.3 I0.8 J0 
X33.065 Y263.065 I0 J-0.8 
X32.712 Y262.712 I-0.176 J-0.176 
G00 Z10
(Esquisse 0)
G90X32.712 Y237.712
Z1
G01 Z-13 F400
G02 X33.065 Y238.065 I0.176 J0.176 F500
X33.3 Y237.5 I-0.565 J-0.565 
X32.5 Y236.7 I-0.8 J0 
X31.7 Y237.5 I0 J0.8 
X32.5 Y238.3 I0.8 J0 
X33.065 Y238.065 I0 J-0.8 
X32.712 Y237.712 I-0.176 J-0.176 
G00 Z10
(Esquisse 0)
G90X32.712 Y212.712
Z1
G01 Z-13 F400
G02 X33.065 Y213.065 I0.176 J0.176 F500
X33.3 Y212.5 I-0.565 J-0.565 
X32.5 Y211.7 I-0.8 J0 
X31.7 Y212.5 I0 J0.8 
X32.5 Y213.3 I0.8 J0 
X33.065 Y213.065 I0 J-0.8 
X32.712 Y212.712 I-0.176 J-0.176 
G00 Z10
(Esquisse 0)
G90X32.712 Y187.712
Z1
G01 Z-13 F400
G02 X33.065 Y188.065 I0.176 J0.176 F500
X33.3 Y187.5 I-0.565 J-0.565 
X32.5 Y186.7 I-0.8 J0 
X31.7 Y187.5 I0 J0.8 
X32.5 Y188.3 I0.8 J0 
X33.065 Y188.065 I0 J-0.8 
X32.712 Y187.712 I-0.176 J-0.176 
G00 Z10
(Esquisse 0)
G90X32.712 Y162.712
Z1
G01 Z-13 F400
G02 X33.065 Y163.065 I0.176 J0.176 F500
X33.3 Y162.5 I-0.565 J-0.565 
X32.5 Y161.7 I-0.8 J0 
X31.7 Y162.5 I0 J0.8 
X32.5 Y163.3 I0.8 J0 
X33.065 Y163.065 I0 J-0.8 
X32.712 Y162.712 I-0.176 J-0.176 
G00 Z10
(Esquisse 0)
G90X32.712 Y137.712
Z1
G01 Z-13 F400
G02 X33.065 Y138.065 I0.176 J0.176 F500
X33.3 Y137.5 I-0.565 J-0.565 
X32.5 Y136.7 I-0.8 J0 
X31.7 Y137.5 I0 J0.8 
X32.5 Y138.3 I0.8 J0 
X33.065 Y138.065 I0 J-0.8 
X32.712 Y137.712 I-0.176 J-0.176 
G00 Z10
(Esquisse 0)
G90X32.712 Y112.712
Z1
G01 Z-13 F400
G02 X33.065 Y113.065 I0.176 J0.176 F500
X33.3 Y112.5 I-0.565 J-0.565 
X32.5 Y111.7 I-0.8 J0 
X31.7 Y112.5 I0 J0.8 
X32.5 Y113.3 I0.8 J0 
X33.065 Y113.065 I0 J-0.8 
X32.712 Y112.712 I-0.176 J-0.176 
G00 Z10
(Esquisse 0)
G90X32.712 Y87.712
Z1
G01 Z-13 F400
G02 X33.065 Y88.065 I0.176 J0.176 F500
X33.3 Y87.5 I-0.565 J-0.565 
X32.5 Y86.7 I-0.8 J0 
X31.7 Y87.5 I0 J0.8 
X32.5 Y88.3 I0.8 J0 
X33.065 Y88.065 I0 J-0.8 
X32.712 Y87.712 I-0.176 J-0.176 
G00 Z10
(Esquisse 0)
G90X32.712 Y62.712
Z1
G01 Z-13 F400
G02 X33.065 Y63.065 I0.176 J0.176 F500
X33.3 Y62.5 I-0.565 J-0.565 
X32.5 Y61.7 I-0.8 J0 
X31.7 Y62.5 I0 J0.8 
X32.5 Y63.3 I0.8 J0 
X33.065 Y63.065 I0 J-0.8 
X32.712 Y62.712 I-0.176 J-0.176 
G00 Z10
(Esquisse 0)
G90X32.712 Y37.712
Z1
G01 Z-13 F400
G02 X33.065 Y38.065 I0.176 J0.176 F500
X33.3 Y37.5 I-0.565 J-0.565 
X32.5 Y36.7 I-0.8 J0 
X31.7 Y37.5 I0 J0.8 
X32.5 Y38.3 I0.8 J0 
X33.065 Y38.065 I0 J-0.8 
X32.712 Y37.712 I-0.176 J-0.176 
G00 Z10
(Esquisse 0)
G90X32.712 Y487.712
Z1
G01 Z-13 F400
G02 X33.065 Y488.065 I0.176 J0.176 F500
X33.3 Y487.5 I-0.565 J-0.565 
X32.5 Y486.7 I-0.8 J0 
X31.7 Y487.5 I0 J0.8 
X32.5 Y488.3 I0.8 J0 
X33.065 Y488.065 I0 J-0.8 
X32.712 Y487.712 I-0.176 J-0.176 
G00 Z10
(Esquisse 0)
G90X82.712 Y462.712
Z1
G01 Z-13 F400
G02 X83.065 Y463.065 I0.176 J0.176 F500
X83.3 Y462.5 I-0.565 J-0.565 
X82.5 Y461.7 I-0.8 J0 
X81.7 Y462.5 I0 J0.8 
X82.5 Y463.3 I0.8 J0 
X83.065 Y463.065 I0 J-0.8 
X82.712 Y462.712 I-0.176 J-0.176 
G00 Z10
(Esquisse 0)
G90X82.712 Y437.712
Z1
G01 Z-13 F400
G02 X83.065 Y438.065 I0.176 J0.176 F500
X83.3 Y437.5 I-0.565 J-0.565 
X82.5 Y436.7 I-0.8 J0 
X81.7 Y437.5 I0 J0.8 
X82.5 Y438.3 I0.8 J0 
X83.065 Y438.065 I0 J-0.8 
X82.712 Y437.712 I-0.176 J-0.176 
G00 Z10
(Esquisse 0)
G90X82.712 Y412.712
Z1
G01 Z-13 F400
G02 X83.065 Y413.065 I0.176 J0.176 F500
X83.3 Y412.5 I-0.565 J-0.565 
X82.5 Y411.7 I-0.8 J0 
X81.7 Y412.5 I0 J0.8 
X82.5 Y413.3 I0.8 J0 
X83.065 Y413.065 I0 J-0.8 
X82.712 Y412.712 I-0.176 J-0.176 
G00 Z10
(Esquisse 0)
G90X82.712 Y387.712
Z1
G01 Z-13 F400
G02 X83.065 Y388.065 I0.176 J0.176 F500
X83.3 Y387.5 I-0.565 J-0.565 
X82.5 Y386.7 I-0.8 J0 
X81.7 Y387.5 I0 J0.8 
X82.5 Y388.3 I0.8 J0 
X83.065 Y388.065 I0 J-0.8 
X82.712 Y387.712 I-0.176 J-0.176 
G00 Z10
(Esquisse 0)
G90X82.712 Y362.712
Z1
G01 Z-13 F400
G02 X83.065 Y363.065 I0.176 J0.176 F500
X83.3 Y362.5 I-0.565 J-0.565 
X82.5 Y361.7 I-0.8 J0 
X81.7 Y362.5 I0 J0.8 
X82.5 Y363.3 I0.8 J0 
X83.065 Y363.065 I0 J-0.8 
X82.712 Y362.712 I-0.176 J-0.176 
G00 Z10
(Esquisse 0)
G90X82.712 Y337.712
Z1
G01 Z-13 F400
G02 X83.065 Y338.065 I0.176 J0.176 F500
X83.3 Y337.5 I-0.565 J-0.565 
X82.5 Y336.7 I-0.8 J0 
X81.7 Y337.5 I0 J0.8 
X82.5 Y338.3 I0.8 J0 
X83.065 Y338.065 I0 J-0.8 
X82.712 Y337.712 I-0.176 J-0.176 
G00 Z10
(Esquisse 0)
G90X82.712 Y312.712
Z1
G01 Z-13 F400
G02 X83.065 Y313.065 I0.176 J0.176 F500
X83.3 Y312.5 I-0.565 J-0.565 
X82.5 Y311.7 I-0.8 J0 
X81.7 Y312.5 I0 J0.8 
X82.5 Y313.3 I0.8 J0 
X83.065 Y313.065 I0 J-0.8 
X82.712 Y312.712 I-0.176 J-0.176 
G00 Z10
(Esquisse 0)
G90X82.712 Y287.712
Z1
G01 Z-13 F400
G02 X83.065 Y288.065 I0.176 J0.176 F500
X83.3 Y287.5 I-0.565 J-0.565 
X82.5 Y286.7 I-0.8 J0 
X81.7 Y287.5 I0 J0.8 
X82.5 Y288.3 I0.8 J0 
X83.065 Y288.065 I0 J-0.8 
X82.712 Y287.712 I-0.176 J-0.176 
G00 Z10
(Esquisse 0)
G90X82.712 Y262.712
Z1
G01 Z-13 F400
G02 X83.065 Y263.065 I0.176 J0.176 F500
X83.3 Y262.5 I-0.565 J-0.565 
X82.5 Y261.7 I-0.8 J0 
X81.7 Y262.5 I0 J0.8 
X82.5 Y263.3 I0.8 J0 
X83.065 Y263.065 I0 J-0.8 
X82.712 Y262.712 I-0.176 J-0.176 
G00 Z10
(Esquisse 0)
G90X82.712 Y237.712
Z1
G01 Z-13 F400
G02 X83.065 Y238.065 I0.176 J0.176 F500
X83.3 Y237.5 I-0.565 J-0.565 
X82.5 Y236.7 I-0.8 J0 
X81.7 Y237.5 I0 J0.8 
X82.5 Y238.3 I0.8 J0 
X83.065 Y238.065 I0 J-0.8 
X82.712 Y237.712 I-0.176 J-0.176 
G00 Z10
(Esquisse 0)
G90X82.712 Y212.712
Z1
G01 Z-13 F400
G02 X83.065 Y213.065 I0.176 J0.176 F500
X83.3 Y212.5 I-0.565 J-0.565 
X82.5 Y211.7 I-0.8 J0 
X81.7 Y212.5 I0 J0.8 
X82.5 Y213.3 I0.8 J0 
X83.065 Y213.065 I0 J-0.8 
X82.712 Y212.712 I-0.176 J-0.176 
G00 Z10
(Esquisse 0)
G90X82.712 Y187.712
Z1
G01 Z-13 F400
G02 X83.065 Y188.065 I0.176 J0.176 F500
X83.3 Y187.5 I-0.565 J-0.565 
X82.5 Y186.7 I-0.8 J0 
X81.7 Y187.5 I0 J0.8 
X82.5 Y188.3 I0.8 J0 
X83.065 Y188.065 I0 J-0.8 
X82.712 Y187.712 I-0.176 J-0.176 
G00 Z10
(Esquisse 0)
G90X82.712 Y162.712
Z1
G01 Z-13 F400
G02 X83.065 Y163.065 I0.176 J0.176 F500
X83.3 Y162.5 I-0.565 J-0.565 
X82.5 Y161.7 I-0.8 J0 
X81.7 Y162.5 I0 J0.8 
X82.5 Y163.3 I0.8 J0 
X83.065 Y163.065 I0 J-0.8 
X82.712 Y162.712 I-0.176 J-0.176 
G00 Z10
(Esquisse 0)
G90X82.712 Y137.712
Z1
G01 Z-13 F400
G02 X83.065 Y138.065 I0.176 J0.176 F500
X83.3 Y137.5 I-0.565 J-0.565 
X82.5 Y136.7 I-0.8 J0 
X81.7 Y137.5 I0 J0.8 
X82.5 Y138.3 I0.8 J0 
X83.065 Y138.065 I0 J-0.8 
X82.712 Y137.712 I-0.176 J-0.176 
G00 Z10
(Esquisse 0)
G90X82.712 Y112.712
Z1
G01 Z-13 F400
G02 X83.065 Y113.065 I0.176 J0.176 F500
X83.3 Y112.5 I-0.565 J-0.565 
X82.5 Y111.7 I-0.8 J0 
X81.7 Y112.5 I0 J0.8 
X82.5 Y113.3 I0.8 J0 
X83.065 Y113.065 I0 J-0.8 
X82.712 Y112.712 I-0.176 J-0.176 
G00 Z10
(Esquisse 0)
G90X82.712 Y87.712
Z1
G01 Z-13 F400
G02 X83.065 Y88.065 I0.176 J0.176 F500
X83.3 Y87.5 I-0.565 J-0.565 
X82.5 Y86.7 I-0.8 J0 
X81.7 Y87.5 I0 J0.8 
X82.5 Y88.3 I0.8 J0 
X83.065 Y88.065 I0 J-0.8 
X82.712 Y87.712 I-0.176 J-0.176 
G00 Z10
(Esquisse 0)
G90X82.712 Y62.712
Z1
G01 Z-13 F400
G02 X83.065 Y63.065 I0.176 J0.176 F500
X83.3 Y62.5 I-0.565 J-0.565 
X82.5 Y61.7 I-0.8 J0 
X81.7 Y62.5 I0 J0.8 
X82.5 Y63.3 I0.8 J0 
X83.065 Y63.065 I0 J-0.8 
X82.712 Y62.712 I-0.176 J-0.176 
G00 Z10
(Esquisse 0)
G90X82.712 Y37.712
Z1
G01 Z-13 F400
G02 X83.065 Y38.065 I0.176 J0.176 F500
X83.3 Y37.5 I-0.565 J-0.565 
X82.5 Y36.7 I-0.8 J0 
X81.7 Y37.5 I0 J0.8 
X82.5 Y38.3 I0.8 J0 
X83.065 Y38.065 I0 J-0.8 
X82.712 Y37.712 I-0.176 J-0.176 
G00 Z10
(Esquisse 0)
G90X82.712 Y12.712
Z1
G01 Z-13 F400
G02 X83.065 Y13.065 I0.176 J0.176 F500
X83.3 Y12.5 I-0.565 J-0.565 
X82.5 Y11.7 I-0.8 J0 
X81.7 Y12.5 I0 J0.8 
X82.5 Y13.3 I0.8 J0 
X83.065 Y13.065 I0 J-0.8 
X82.712 Y12.712 I-0.176 J-0.176 
G00 Z10
(Esquisse 0)
G90X82.712 Y487.712
Z1
G01 Z-13 F400
G02 X83.065 Y488.065 I0.176 J0.176 F500
X83.3 Y487.5 I-0.565 J-0.565 
X82.5 Y486.7 I-0.8 J0 
X81.7 Y487.5 I0 J0.8 
X82.5 Y488.3 I0.8 J0 
X83.065 Y488.065 I0 J-0.8 
X82.712 Y487.712 I-0.176 J-0.176 
G00 Z10
(Esquisse 0)
G90X132.712 Y462.712
Z1
G01 Z-13 F400
G02 X133.065 Y463.065 I0.176 J0.176 F500
X133.3 Y462.5 I-0.565 J-0.565 
X132.5 Y461.7 I-0.8 J0 
X131.7 Y462.5 I0 J0.8 
X132.5 Y463.3 I0.8 J0 
X133.065 Y463.065 I0 J-0.8 
X132.712 Y462.712 I-0.176 J-0.176 
G00 Z10
(Esquisse 0)
G90X132.712 Y437.712
Z1
G01 Z-13 F400
G02 X133.065 Y438.065 I0.176 J0.176 F500
X133.3 Y437.5 I-0.565 J-0.565 
X132.5 Y436.7 I-0.8 J0 
X131.7 Y437.5 I0 J0.8 
X132.5 Y438.3 I0.8 J0 
X133.065 Y438.065 I0 J-0.8 
X132.712 Y437.712 I-0.176 J-0.176 
G00 Z10
(Esquisse 0)
G90X132.712 Y412.712
Z1
G01 Z-13 F400
G02 X133.065 Y413.065 I0.176 J0.176 F500
X133.3 Y412.5 I-0.565 J-0.565 
X132.5 Y411.7 I-0.8 J0 
X131.7 Y412.5 I0 J0.8 
X132.5 Y413.3 I0.8 J0 
X133.065 Y413.065 I0 J-0.8 
X132.712 Y412.712 I-0.176 J-0.176 
G00 Z10
(Esquisse 0)
G90X132.712 Y387.712
Z1
G01 Z-13 F400
G02 X133.065 Y388.065 I0.176 J0.176 F500
X133.3 Y387.5 I-0.565 J-0.565 
X132.5 Y386.7 I-0.8 J0 
X131.7 Y387.5 I0 J0.8 
X132.5 Y388.3 I0.8 J0 
X133.065 Y388.065 I0 J-0.8 
X132.712 Y387.712 I-0.176 J-0.176 
G00 Z10
(Esquisse 0)
G90X132.712 Y362.712
Z1
G01 Z-13 F400
G02 X133.065 Y363.065 I0.176 J0.176 F500
X133.3 Y362.5 I-0.565 J-0.565 
X132.5 Y361.7 I-0.8 J0 
X131.7 Y362.5 I0 J0.8 
X132.5 Y363.3 I0.8 J0 
X133.065 Y363.065 I0 J-0.8 
X132.712 Y362.712 I-0.176 J-0.176 
G00 Z10
(Esquisse 0)
G90X132.712 Y337.712
Z1
G01 Z-13 F400
G02 X133.065 Y338.065 I0.176 J0.176 F500
X133.3 Y337.5 I-0.565 J-0.565 
X132.5 Y336.7 I-0.8 J0 
X131.7 Y337.5 I0 J0.8 
X132.5 Y338.3 I0.8 J0 
X133.065 Y338.065 I0 J-0.8 
X132.712 Y337.712 I-0.176 J-0.176 
G00 Z10
(Esquisse 0)
G90X132.712 Y312.712
Z1
G01 Z-13 F400
G02 X133.065 Y313.065 I0.176 J0.176 F500
X133.3 Y312.5 I-0.565 J-0.565 
X132.5 Y311.7 I-0.8 J0 
X131.7 Y312.5 I0 J0.8 
X132.5 Y313.3 I0.8 J0 
X133.065 Y313.065 I0 J-0.8 
X132.712 Y312.712 I-0.176 J-0.176 
G00 Z10
(Esquisse 0)
G90X132.712 Y287.712
Z1
G01 Z-13 F400
G02 X133.065 Y288.065 I0.176 J0.176 F500
X133.3 Y287.5 I-0.565 J-0.565 
X132.5 Y286.7 I-0.8 J0 
X131.7 Y287.5 I0 J0.8 
X132.5 Y288.3 I0.8 J0 
X133.065 Y288.065 I0 J-0.8 
X132.712 Y287.712 I-0.176 J-0.176 
G00 Z10
(Esquisse 0)
G90X132.712 Y262.712
Z1
G01 Z-13 F400
G02 X133.065 Y263.065 I0.176 J0.176 F500
X133.3 Y262.5 I-0.565 J-0.565 
X132.5 Y261.7 I-0.8 J0 
X131.7 Y262.5 I0 J0.8 
X132.5 Y263.3 I0.8 J0 
X133.065 Y263.065 I0 J-0.8 
X132.712 Y262.712 I-0.176 J-0.176 
G00 Z10
(Esquisse 0)
G90X132.712 Y237.712
Z1
G01 Z-13 F400
G02 X133.065 Y238.065 I0.176 J0.176 F500
X133.3 Y237.5 I-0.565 J-0.565 
X132.5 Y236.7 I-0.8 J0 
X131.7 Y237.5 I0 J0.8 
X132.5 Y238.3 I0.8 J0 
X133.065 Y238.065 I0 J-0.8 
X132.712 Y237.712 I-0.176 J-0.176 
G00 Z10
(Esquisse 0)
G90X132.712 Y212.712
Z1
G01 Z-13 F400
G02 X133.065 Y213.065 I0.176 J0.176 F500
X133.3 Y212.5 I-0.565 J-0.565 
X132.5 Y211.7 I-0.8 J0 
X131.7 Y212.5 I0 J0.8 
X132.5 Y213.3 I0.8 J0 
X133.065 Y213.065 I0 J-0.8 
X132.712 Y212.712 I-0.176 J-0.176 
G00 Z10
(Esquisse 0)
G90X132.712 Y187.712
Z1
G01 Z-13 F400
G02 X133.065 Y188.065 I0.176 J0.176 F500
X133.3 Y187.5 I-0.565 J-0.565 
X132.5 Y186.7 I-0.8 J0 
X131.7 Y187.5 I0 J0.8 
X132.5 Y188.3 I0.8 J0 
X133.065 Y188.065 I0 J-0.8 
X132.712 Y187.712 I-0.176 J-0.176 
G00 Z10
(Esquisse 0)
G90X132.712 Y162.712
Z1
G01 Z-13 F400
G02 X133.065 Y163.065 I0.176 J0.176 F500
X133.3 Y162.5 I-0.565 J-0.565 
X132.5 Y161.7 I-0.8 J0 
X131.7 Y162.5 I0 J0.8 
X132.5 Y163.3 I0.8 J0 
X133.065 Y163.065 I0 J-0.8 
X132.712 Y162.712 I-0.176 J-0.176 
G00 Z10
(Esquisse 0)
G90X132.712 Y137.712
Z1
G01 Z-13 F400
G02 X133.065 Y138.065 I0.176 J0.176 F500
X133.3 Y137.5 I-0.565 J-0.565 
X132.5 Y136.7 I-0.8 J0 
X131.7 Y137.5 I0 J0.8 
X132.5 Y138.3 I0.8 J0 
X133.065 Y138.065 I0 J-0.8 
X132.712 Y137.712 I-0.176 J-0.176 
G00 Z10
(Esquisse 0)
G90X132.712 Y112.712
Z1
G01 Z-13 F400
G02 X133.065 Y113.065 I0.176 J0.176 F500
X133.3 Y112.5 I-0.565 J-0.565 
X132.5 Y111.7 I-0.8 J0 
X131.7 Y112.5 I0 J0.8 
X132.5 Y113.3 I0.8 J0 
X133.065 Y113.065 I0 J-0.8 
X132.712 Y112.712 I-0.176 J-0.176 
G00 Z10
(Esquisse 0)
G90X132.712 Y87.712
Z1
G01 Z-13 F400
G02 X133.065 Y88.065 I0.176 J0.176 F500
X133.3 Y87.5 I-0.565 J-0.565 
X132.5 Y86.7 I-0.8 J0 
X131.7 Y87.5 I0 J0.8 
X132.5 Y88.3 I0.8 J0 
X133.065 Y88.065 I0 J-0.8 
X132.712 Y87.712 I-0.176 J-0.176 
G00 Z10
(Esquisse 0)
G90X132.712 Y62.712
Z1
G01 Z-13 F400
G02 X133.065 Y63.065 I0.176 J0.176 F500
X133.3 Y62.5 I-0.565 J-0.565 
X132.5 Y61.7 I-0.8 J0 
X131.7 Y62.5 I0 J0.8 
X132.5 Y63.3 I0.8 J0 
X133.065 Y63.065 I0 J-0.8 
X132.712 Y62.712 I-0.176 J-0.176 
G00 Z10
(Esquisse 0)
G90X132.712 Y37.712
Z1
G01 Z-13 F400
G02 X133.065 Y38.065 I0.176 J0.176 F500
X133.3 Y37.5 I-0.565 J-0.565 
X132.5 Y36.7 I-0.8 J0 
X131.7 Y37.5 I0 J0.8 
X132.5 Y38.3 I0.8 J0 
X133.065 Y38.065 I0 J-0.8 
X132.712 Y37.712 I-0.176 J-0.176 
G00 Z10
(Esquisse 0)
G90X132.712 Y12.712
Z1
G01 Z-13 F400
G02 X133.065 Y13.065 I0.176 J0.176 F500
X133.3 Y12.5 I-0.565 J-0.565 
X132.5 Y11.7 I-0.8 J0 
X131.7 Y12.5 I0 J0.8 
X132.5 Y13.3 I0.8 J0 
X133.065 Y13.065 I0 J-0.8 
X132.712 Y12.712 I-0.176 J-0.176 
G00 Z10
(Esquisse 0)
G90X132.712 Y487.712
Z1
G01 Z-13 F400
G02 X133.065 Y488.065 I0.176 J0.176 F500
X133.3 Y487.5 I-0.565 J-0.565 
X132.5 Y486.7 I-0.8 J0 
X131.7 Y487.5 I0 J0.8 
X132.5 Y488.3 I0.8 J0 
X133.065 Y488.065 I0 J-0.8 
X132.712 Y487.712 I-0.176 J-0.176 
G00 Z10
(Esquisse 0)
G90X182.712 Y462.712
Z1
G01 Z-13 F400
G02 X183.065 Y463.065 I0.176 J0.176 F500
X183.3 Y462.5 I-0.565 J-0.565 
X182.5 Y461.7 I-0.8 J0 
X181.7 Y462.5 I0 J0.8 
X182.5 Y463.3 I0.8 J0 
X183.065 Y463.065 I0 J-0.8 
X182.712 Y462.712 I-0.176 J-0.176 
G00 Z10
(Esquisse 0)
G90X182.712 Y437.712
Z1
G01 Z-13 F400
G02 X183.065 Y438.065 I0.176 J0.176 F500
X183.3 Y437.5 I-0.565 J-0.565 
X182.5 Y436.7 I-0.8 J0 
X181.7 Y437.5 I0 J0.8 
X182.5 Y438.3 I0.8 J0 
X183.065 Y438.065 I0 J-0.8 
X182.712 Y437.712 I-0.176 J-0.176 
G00 Z10
(Esquisse 0)
G90X182.712 Y412.712
Z1
G01 Z-13 F400
G02 X183.065 Y413.065 I0.176 J0.176 F500
X183.3 Y412.5 I-0.565 J-0.565 
X182.5 Y411.7 I-0.8 J0 
X181.7 Y412.5 I0 J0.8 
X182.5 Y413.3 I0.8 J0 
X183.065 Y413.065 I0 J-0.8 
X182.712 Y412.712 I-0.176 J-0.176 
G00 Z10
(Esquisse 0)
G90X182.712 Y387.712
Z1
G01 Z-13 F400
G02 X183.065 Y388.065 I0.176 J0.176 F500
X183.3 Y387.5 I-0.565 J-0.565 
X182.5 Y386.7 I-0.8 J0 
X181.7 Y387.5 I0 J0.8 
X182.5 Y388.3 I0.8 J0 
X183.065 Y388.065 I0 J-0.8 
X182.712 Y387.712 I-0.176 J-0.176 
G00 Z10
(Esquisse 0)
G90X182.712 Y362.712
Z1
G01 Z-13 F400
G02 X183.065 Y363.065 I0.176 J0.176 F500
X183.3 Y362.5 I-0.565 J-0.565 
X182.5 Y361.7 I-0.8 J0 
X181.7 Y362.5 I0 J0.8 
X182.5 Y363.3 I0.8 J0 
X183.065 Y363.065 I0 J-0.8 
X182.712 Y362.712 I-0.176 J-0.176 
G00 Z10
(Esquisse 0)
G90X182.712 Y337.712
Z1
G01 Z-13 F400
G02 X183.065 Y338.065 I0.176 J0.176 F500
X183.3 Y337.5 I-0.565 J-0.565 
X182.5 Y336.7 I-0.8 J0 
X181.7 Y337.5 I0 J0.8 
X182.5 Y338.3 I0.8 J0 
X183.065 Y338.065 I0 J-0.8 
X182.712 Y337.712 I-0.176 J-0.176 
G00 Z10
(Esquisse 0)
G90X182.712 Y312.712
Z1
G01 Z-13 F400
G02 X183.065 Y313.065 I0.176 J0.176 F500
X183.3 Y312.5 I-0.565 J-0.565 
X182.5 Y311.7 I-0.8 J0 
X181.7 Y312.5 I0 J0.8 
X182.5 Y313.3 I0.8 J0 
X183.065 Y313.065 I0 J-0.8 
X182.712 Y312.712 I-0.176 J-0.176 
G00 Z10
(Esquisse 0)
G90X182.712 Y287.712
Z1
G01 Z-13 F400
G02 X183.065 Y288.065 I0.176 J0.176 F500
X183.3 Y287.5 I-0.565 J-0.565 
X182.5 Y286.7 I-0.8 J0 
X181.7 Y287.5 I0 J0.8 
X182.5 Y288.3 I0.8 J0 
X183.065 Y288.065 I0 J-0.8 
X182.712 Y287.712 I-0.176 J-0.176 
G00 Z10
(Esquisse 0)
G90X182.712 Y262.712
Z1
G01 Z-13 F400
G02 X183.065 Y263.065 I0.176 J0.176 F500
X183.3 Y262.5 I-0.565 J-0.565 
X182.5 Y261.7 I-0.8 J0 
X181.7 Y262.5 I0 J0.8 
X182.5 Y263.3 I0.8 J0 
X183.065 Y263.065 I0 J-0.8 
X182.712 Y262.712 I-0.176 J-0.176 
G00 Z10
(Esquisse 0)
G90X182.712 Y237.712
Z1
G01 Z-13 F400
G02 X183.065 Y238.065 I0.176 J0.176 F500
X183.3 Y237.5 I-0.565 J-0.565 
X182.5 Y236.7 I-0.8 J0 
X181.7 Y237.5 I0 J0.8 
X182.5 Y238.3 I0.8 J0 
X183.065 Y238.065 I0 J-0.8 
X182.712 Y237.712 I-0.176 J-0.176 
G00 Z10
(Esquisse 0)
G90X182.712 Y212.712
Z1
G01 Z-13 F400
G02 X183.065 Y213.065 I0.176 J0.176 F500
X183.3 Y212.5 I-0.565 J-0.565 
X182.5 Y211.7 I-0.8 J0 
X181.7 Y212.5 I0 J0.8 
X182.5 Y213.3 I0.8 J0 
X183.065 Y213.065 I0 J-0.8 
X182.712 Y212.712 I-0.176 J-0.176 
G00 Z10
(Esquisse 0)
G90X182.712 Y187.712
Z1
G01 Z-13 F400
G02 X183.065 Y188.065 I0.176 J0.176 F500
X183.3 Y187.5 I-0.565 J-0.565 
X182.5 Y186.7 I-0.8 J0 
X181.7 Y187.5 I0 J0.8 
X182.5 Y188.3 I0.8 J0 
X183.065 Y188.065 I0 J-0.8 
X182.712 Y187.712 I-0.176 J-0.176 
G00 Z10
(Esquisse 0)
G90X182.712 Y162.712
Z1
G01 Z-13 F400
G02 X183.065 Y163.065 I0.176 J0.176 F500
X183.3 Y162.5 I-0.565 J-0.565 
X182.5 Y161.7 I-0.8 J0 
X181.7 Y162.5 I0 J0.8 
X182.5 Y163.3 I0.8 J0 
X183.065 Y163.065 I0 J-0.8 
X182.712 Y162.712 I-0.176 J-0.176 
G00 Z10
(Esquisse 0)
G90X182.712 Y137.712
Z1
G01 Z-13 F400
G02 X183.065 Y138.065 I0.176 J0.176 F500
X183.3 Y137.5 I-0.565 J-0.565 
X182.5 Y136.7 I-0.8 J0 
X181.7 Y137.5 I0 J0.8 
X182.5 Y138.3 I0.8 J0 
X183.065 Y138.065 I0 J-0.8 
X182.712 Y137.712 I-0.176 J-0.176 
G00 Z10
(Esquisse 0)
G90X182.712 Y112.712
Z1
G01 Z-13 F400
G02 X183.065 Y113.065 I0.176 J0.176 F500
X183.3 Y112.5 I-0.565 J-0.565 
X182.5 Y111.7 I-0.8 J0 
X181.7 Y112.5 I0 J0.8 
X182.5 Y113.3 I0.8 J0 
X183.065 Y113.065 I0 J-0.8 
X182.712 Y112.712 I-0.176 J-0.176 
G00 Z10
(Esquisse 0)
G90X182.712 Y87.712
Z1
G01 Z-13 F400
G02 X183.065 Y88.065 I0.176 J0.176 F500
X183.3 Y87.5 I-0.565 J-0.565 
X182.5 Y86.7 I-0.8 J0 
X181.7 Y87.5 I0 J0.8 
X182.5 Y88.3 I0.8 J0 
X183.065 Y88.065 I0 J-0.8 
X182.712 Y87.712 I-0.176 J-0.176 
G00 Z10
(Esquisse 0)
G90X182.712 Y62.712
Z1
G01 Z-13 F400
G02 X183.065 Y63.065 I0.176 J0.176 F500
X183.3 Y62.5 I-0.565 J-0.565 
X182.5 Y61.7 I-0.8 J0 
X181.7 Y62.5 I0 J0.8 
X182.5 Y63.3 I0.8 J0 
X183.065 Y63.065 I0 J-0.8 
X182.712 Y62.712 I-0.176 J-0.176 
G00 Z10
(Esquisse 0)
G90X182.712 Y37.712
Z1
G01 Z-13 F400
G02 X183.065 Y38.065 I0.176 J0.176 F500
X183.3 Y37.5 I-0.565 J-0.565 
X182.5 Y36.7 I-0.8 J0 
X181.7 Y37.5 I0 J0.8 
X182.5 Y38.3 I0.8 J0 
X183.065 Y38.065 I0 J-0.8 
X182.712 Y37.712 I-0.176 J-0.176 
G00 Z10
(Esquisse 0)
G90X182.712 Y12.712
Z1
G01 Z-13 F400
G02 X183.065 Y13.065 I0.176 J0.176 F500
X183.3 Y12.5 I-0.565 J-0.565 
X182.5 Y11.7 I-0.8 J0 
X181.7 Y12.5 I0 J0.8 
X182.5 Y13.3 I0.8 J0 
X183.065 Y13.065 I0 J-0.8 
X182.712 Y12.712 I-0.176 J-0.176 
G00 Z10
(Esquisse 0)
G90X182.712 Y487.712
Z1
G01 Z-13 F400
G02 X183.065 Y488.065 I0.176 J0.176 F500
X183.3 Y487.5 I-0.565 J-0.565 
X182.5 Y486.7 I-0.8 J0 
X181.7 Y487.5 I0 J0.8 
X182.5 Y488.3 I0.8 J0 
X183.065 Y488.065 I0 J-0.8 
X182.712 Y487.712 I-0.176 J-0.176 
G00 Z10
(Esquisse 0)
G90X232.712 Y462.712
Z1
G01 Z-13 F400
G02 X233.065 Y463.065 I0.176 J0.176 F500
X233.3 Y462.5 I-0.565 J-0.565 
X232.5 Y461.7 I-0.8 J0 
X231.7 Y462.5 I0 J0.8 
X232.5 Y463.3 I0.8 J0 
X233.065 Y463.065 I0 J-0.8 
X232.712 Y462.712 I-0.176 J-0.176 
G00 Z10
(Esquisse 0)
G90X232.712 Y437.712
Z1
G01 Z-13 F400
G02 X233.065 Y438.065 I0.176 J0.176 F500
X233.3 Y437.5 I-0.565 J-0.565 
X232.5 Y436.7 I-0.8 J0 
X231.7 Y437.5 I0 J0.8 
X232.5 Y438.3 I0.8 J0 
X233.065 Y438.065 I0 J-0.8 
X232.712 Y437.712 I-0.176 J-0.176 
G00 Z10
(Esquisse 0)
G90X232.712 Y412.712
Z1
G01 Z-13 F400
G02 X233.065 Y413.065 I0.176 J0.176 F500
X233.3 Y412.5 I-0.565 J-0.565 
X232.5 Y411.7 I-0.8 J0 
X231.7 Y412.5 I0 J0.8 
X232.5 Y413.3 I0.8 J0 
X233.065 Y413.065 I0 J-0.8 
X232.712 Y412.712 I-0.176 J-0.176 
G00 Z10
(Esquisse 0)
G90X232.712 Y387.712
Z1
G01 Z-13 F400
G02 X233.065 Y388.065 I0.176 J0.176 F500
X233.3 Y387.5 I-0.565 J-0.565 
X232.5 Y386.7 I-0.8 J0 
X231.7 Y387.5 I0 J0.8 
X232.5 Y388.3 I0.8 J0 
X233.065 Y388.065 I0 J-0.8 
X232.712 Y387.712 I-0.176 J-0.176 
G00 Z10
(Esquisse 0)
G90X232.712 Y362.712
Z1
G01 Z-13 F400
G02 X233.065 Y363.065 I0.176 J0.176 F500
X233.3 Y362.5 I-0.565 J-0.565 
X232.5 Y361.7 I-0.8 J0 
X231.7 Y362.5 I0 J0.8 
X232.5 Y363.3 I0.8 J0 
X233.065 Y363.065 I0 J-0.8 
X232.712 Y362.712 I-0.176 J-0.176 
G00 Z10
(Esquisse 0)
G90X232.712 Y337.712
Z1
G01 Z-13 F400
G02 X233.065 Y338.065 I0.176 J0.176 F500
X233.3 Y337.5 I-0.565 J-0.565 
X232.5 Y336.7 I-0.8 J0 
X231.7 Y337.5 I0 J0.8 
X232.5 Y338.3 I0.8 J0 
X233.065 Y338.065 I0 J-0.8 
X232.712 Y337.712 I-0.176 J-0.176 
G00 Z10
(Esquisse 0)
G90X232.712 Y312.712
Z1
G01 Z-13 F400
G02 X233.065 Y313.065 I0.176 J0.176 F500
X233.3 Y312.5 I-0.565 J-0.565 
X232.5 Y311.7 I-0.8 J0 
X231.7 Y312.5 I0 J0.8 
X232.5 Y313.3 I0.8 J0 
X233.065 Y313.065 I0 J-0.8 
X232.712 Y312.712 I-0.176 J-0.176 
G00 Z10
(Esquisse 0)
G90X232.712 Y287.712
Z1
G01 Z-13 F400
G02 X233.065 Y288.065 I0.176 J0.176 F500
X233.3 Y287.5 I-0.565 J-0.565 
X232.5 Y286.7 I-0.8 J0 
X231.7 Y287.5 I0 J0.8 
X232.5 Y288.3 I0.8 J0 
X233.065 Y288.065 I0 J-0.8 
X232.712 Y287.712 I-0.176 J-0.176 
G00 Z10
(Esquisse 0)
G90X232.712 Y262.712
Z1
G01 Z-13 F400
G02 X233.065 Y263.065 I0.176 J0.176 F500
X233.3 Y262.5 I-0.565 J-0.565 
X232.5 Y261.7 I-0.8 J0 
X231.7 Y262.5 I0 J0.8 
X232.5 Y263.3 I0.8 J0 
X233.065 Y263.065 I0 J-0.8 
X232.712 Y262.712 I-0.176 J-0.176 
G00 Z10
(Esquisse 0)
G90X232.712 Y237.712
Z1
G01 Z-13 F400
G02 X233.065 Y238.065 I0.176 J0.176 F500
X233.3 Y237.5 I-0.565 J-0.565 
X232.5 Y236.7 I-0.8 J0 
X231.7 Y237.5 I0 J0.8 
X232.5 Y238.3 I0.8 J0 
X233.065 Y238.065 I0 J-0.8 
X232.712 Y237.712 I-0.176 J-0.176 
G00 Z10
(Esquisse 0)
G90X232.712 Y212.712
Z1
G01 Z-13 F400
G02 X233.065 Y213.065 I0.176 J0.176 F500
X233.3 Y212.5 I-0.565 J-0.565 
X232.5 Y211.7 I-0.8 J0 
X231.7 Y212.5 I0 J0.8 
X232.5 Y213.3 I0.8 J0 
X233.065 Y213.065 I0 J-0.8 
X232.712 Y212.712 I-0.176 J-0.176 
G00 Z10
(Esquisse 0)
G90X232.712 Y187.712
Z1
G01 Z-13 F400
G02 X233.065 Y188.065 I0.176 J0.176 F500
X233.3 Y187.5 I-0.565 J-0.565 
X232.5 Y186.7 I-0.8 J0 
X231.7 Y187.5 I0 J0.8 
X232.5 Y188.3 I0.8 J0 
X233.065 Y188.065 I0 J-0.8 
X232.712 Y187.712 I-0.176 J-0.176 
G00 Z10
(Esquisse 0)
G90X232.712 Y162.712
Z1
G01 Z-13 F400
G02 X233.065 Y163.065 I0.176 J0.176 F500
X233.3 Y162.5 I-0.565 J-0.565 
X232.5 Y161.7 I-0.8 J0 
X231.7 Y162.5 I0 J0.8 
X232.5 Y163.3 I0.8 J0 
X233.065 Y163.065 I0 J-0.8 
X232.712 Y162.712 I-0.176 J-0.176 
G00 Z10
(Esquisse 0)
G90X232.712 Y137.712
Z1
G01 Z-13 F400
G02 X233.065 Y138.065 I0.176 J0.176 F500
X233.3 Y137.5 I-0.565 J-0.565 
X232.5 Y136.7 I-0.8 J0 
X231.7 Y137.5 I0 J0.8 
X232.5 Y138.3 I0.8 J0 
X233.065 Y138.065 I0 J-0.8 
X232.712 Y137.712 I-0.176 J-0.176 
G00 Z10
(Esquisse 0)
G90X232.712 Y112.712
Z1
G01 Z-13 F400
G02 X233.065 Y113.065 I0.176 J0.176 F500
X233.3 Y112.5 I-0.565 J-0.565 
X232.5 Y111.7 I-0.8 J0 
X231.7 Y112.5 I0 J0.8 
X232.5 Y113.3 I0.8 J0 
X233.065 Y113.065 I0 J-0.8 
X232.712 Y112.712 I-0.176 J-0.176 
G00 Z10
(Esquisse 0)
G90X232.712 Y87.712
Z1
G01 Z-13 F400
G02 X233.065 Y88.065 I0.176 J0.176 F500
X233.3 Y87.5 I-0.565 J-0.565 
X232.5 Y86.7 I-0.8 J0 
X231.7 Y87.5 I0 J0.8 
X232.5 Y88.3 I0.8 J0 
X233.065 Y88.065 I0 J-0.8 
X232.712 Y87.712 I-0.176 J-0.176 
G00 Z10
(Esquisse 0)
G90X232.712 Y62.712
Z1
G01 Z-13 F400
G02 X233.065 Y63.065 I0.176 J0.176 F500
X233.3 Y62.5 I-0.565 J-0.565 
X232.5 Y61.7 I-0.8 J0 
X231.7 Y62.5 I0 J0.8 
X232.5 Y63.3 I0.8 J0 
X233.065 Y63.065 I0 J-0.8 
X232.712 Y62.712 I-0.176 J-0.176 
G00 Z10
(Esquisse 0)
G90X232.712 Y37.712
Z1
G01 Z-13 F400
G02 X233.065 Y38.065 I0.176 J0.176 F500
X233.3 Y37.5 I-0.565 J-0.565 
X232.5 Y36.7 I-0.8 J0 
X231.7 Y37.5 I0 J0.8 
X232.5 Y38.3 I0.8 J0 
X233.065 Y38.065 I0 J-0.8 
X232.712 Y37.712 I-0.176 J-0.176 
G00 Z10
(Esquisse 0)
G90X232.712 Y12.712
Z1
G01 Z-13 F400
G02 X233.065 Y13.065 I0.176 J0.176 F500
X233.3 Y12.5 I-0.565 J-0.565 
X232.5 Y11.7 I-0.8 J0 
X231.7 Y12.5 I0 J0.8 
X232.5 Y13.3 I0.8 J0 
X233.065 Y13.065 I0 J-0.8 
X232.712 Y12.712 I-0.176 J-0.176 
G00 Z10
(Esquisse 0)
G90X232.712 Y487.712
Z1
G01 Z-13 F400
G02 X233.065 Y488.065 I0.176 J0.176 F500
X233.3 Y487.5 I-0.565 J-0.565 
X232.5 Y486.7 I-0.8 J0 
X231.7 Y487.5 I0 J0.8 
X232.5 Y488.3 I0.8 J0 
X233.065 Y488.065 I0 J-0.8 
X232.712 Y487.712 I-0.176 J-0.176 
G00 Z10
(Esquisse 0)
G90X282.712 Y462.712
Z1
G01 Z-13 F400
G02 X283.065 Y463.065 I0.176 J0.176 F500
X283.3 Y462.5 I-0.565 J-0.565 
X282.5 Y461.7 I-0.8 J0 
X281.7 Y462.5 I0 J0.8 
X282.5 Y463.3 I0.8 J0 
X283.065 Y463.065 I0 J-0.8 
X282.712 Y462.712 I-0.176 J-0.176 
G00 Z10
(Esquisse 0)
G90X282.712 Y437.712
Z1
G01 Z-13 F400
G02 X283.065 Y438.065 I0.176 J0.176 F500
X283.3 Y437.5 I-0.565 J-0.565 
X282.5 Y436.7 I-0.8 J0 
X281.7 Y437.5 I0 J0.8 
X282.5 Y438.3 I0.8 J0 
X283.065 Y438.065 I0 J-0.8 
X282.712 Y437.712 I-0.176 J-0.176 
G00 Z10
(Esquisse 0)
G90X282.712 Y412.712
Z1
G01 Z-13 F400
G02 X283.065 Y413.065 I0.176 J0.176 F500
X283.3 Y412.5 I-0.565 J-0.565 
X282.5 Y411.7 I-0.8 J0 
X281.7 Y412.5 I0 J0.8 
X282.5 Y413.3 I0.8 J0 
X283.065 Y413.065 I0 J-0.8 
X282.712 Y412.712 I-0.176 J-0.176 
G00 Z10
(Esquisse 0)
G90X282.712 Y387.712
Z1
G01 Z-13 F400
G02 X283.065 Y388.065 I0.176 J0.176 F500
X283.3 Y387.5 I-0.565 J-0.565 
X282.5 Y386.7 I-0.8 J0 
X281.7 Y387.5 I0 J0.8 
X282.5 Y388.3 I0.8 J0 
X283.065 Y388.065 I0 J-0.8 
X282.712 Y387.712 I-0.176 J-0.176 
G00 Z10
(Esquisse 0)
G90X282.712 Y362.712
Z1
G01 Z-13 F400
G02 X283.065 Y363.065 I0.176 J0.176 F500
X283.3 Y362.5 I-0.565 J-0.565 
X282.5 Y361.7 I-0.8 J0 
X281.7 Y362.5 I0 J0.8 
X282.5 Y363.3 I0.8 J0 
X283.065 Y363.065 I0 J-0.8 
X282.712 Y362.712 I-0.176 J-0.176 
G00 Z10
(Esquisse 0)
G90X282.712 Y337.712
Z1
G01 Z-13 F400
G02 X283.065 Y338.065 I0.176 J0.176 F500
X283.3 Y337.5 I-0.565 J-0.565 
X282.5 Y336.7 I-0.8 J0 
X281.7 Y337.5 I0 J0.8 
X282.5 Y338.3 I0.8 J0 
X283.065 Y338.065 I0 J-0.8 
X282.712 Y337.712 I-0.176 J-0.176 
G00 Z10
(Esquisse 0)
G90X282.712 Y312.712
Z1
G01 Z-13 F400
G02 X283.065 Y313.065 I0.176 J0.176 F500
X283.3 Y312.5 I-0.565 J-0.565 
X282.5 Y311.7 I-0.8 J0 
X281.7 Y312.5 I0 J0.8 
X282.5 Y313.3 I0.8 J0 
X283.065 Y313.065 I0 J-0.8 
X282.712 Y312.712 I-0.176 J-0.176 
G00 Z10
(Esquisse 0)
G90X282.712 Y287.712
Z1
G01 Z-13 F400
G02 X283.065 Y288.065 I0.176 J0.176 F500
X283.3 Y287.5 I-0.565 J-0.565 
X282.5 Y286.7 I-0.8 J0 
X281.7 Y287.5 I0 J0.8 
X282.5 Y288.3 I0.8 J0 
X283.065 Y288.065 I0 J-0.8 
X282.712 Y287.712 I-0.176 J-0.176 
G00 Z10
(Esquisse 0)
G90X282.712 Y262.712
Z1
G01 Z-13 F400
G02 X283.065 Y263.065 I0.176 J0.176 F500
X283.3 Y262.5 I-0.565 J-0.565 
X282.5 Y261.7 I-0.8 J0 
X281.7 Y262.5 I0 J0.8 
X282.5 Y263.3 I0.8 J0 
X283.065 Y263.065 I0 J-0.8 
X282.712 Y262.712 I-0.176 J-0.176 
G00 Z10
(Esquisse 0)
G90X282.712 Y237.712
Z1
G01 Z-13 F400
G02 X283.065 Y238.065 I0.176 J0.176 F500
X283.3 Y237.5 I-0.565 J-0.565 
X282.5 Y236.7 I-0.8 J0 
X281.7 Y237.5 I0 J0.8 
X282.5 Y238.3 I0.8 J0 
X283.065 Y238.065 I0 J-0.8 
X282.712 Y237.712 I-0.176 J-0.176 
G00 Z10
(Esquisse 0)
G90X282.712 Y212.712
Z1
G01 Z-13 F400
G02 X283.065 Y213.065 I0.176 J0.176 F500
X283.3 Y212.5 I-0.565 J-0.565 
X282.5 Y211.7 I-0.8 J0 
X281.7 Y212.5 I0 J0.8 
X282.5 Y213.3 I0.8 J0 
X283.065 Y213.065 I0 J-0.8 
X282.712 Y212.712 I-0.176 J-0.176 
G00 Z10
(Esquisse 0)
G90X282.712 Y187.712
Z1
G01 Z-13 F400
G02 X283.065 Y188.065 I0.176 J0.176 F500
X283.3 Y187.5 I-0.565 J-0.565 
X282.5 Y186.7 I-0.8 J0 
X281.7 Y187.5 I0 J0.8 
X282.5 Y188.3 I0.8 J0 
X283.065 Y188.065 I0 J-0.8 
X282.712 Y187.712 I-0.176 J-0.176 
G00 Z10
(Esquisse 0)
G90X282.712 Y162.712
Z1
G01 Z-13 F400
G02 X283.065 Y163.065 I0.176 J0.176 F500
X283.3 Y162.5 I-0.565 J-0.565 
X282.5 Y161.7 I-0.8 J0 
X281.7 Y162.5 I0 J0.8 
X282.5 Y163.3 I0.8 J0 
X283.065 Y163.065 I0 J-0.8 
X282.712 Y162.712 I-0.176 J-0.176 
G00 Z10
(Esquisse 0)
G90X282.712 Y137.712
Z1
G01 Z-13 F400
G02 X283.065 Y138.065 I0.176 J0.176 F500
X283.3 Y137.5 I-0.565 J-0.565 
X282.5 Y136.7 I-0.8 J0 
X281.7 Y137.5 I0 J0.8 
X282.5 Y138.3 I0.8 J0 
X283.065 Y138.065 I0 J-0.8 
X282.712 Y137.712 I-0.176 J-0.176 
G00 Z10
(Esquisse 0)
G90X282.712 Y112.712
Z1
G01 Z-13 F400
G02 X283.065 Y113.065 I0.176 J0.176 F500
X283.3 Y112.5 I-0.565 J-0.565 
X282.5 Y111.7 I-0.8 J0 
X281.7 Y112.5 I0 J0.8 
X282.5 Y113.3 I0.8 J0 
X283.065 Y113.065 I0 J-0.8 
X282.712 Y112.712 I-0.176 J-0.176 
G00 Z10
(Esquisse 0)
G90X282.712 Y87.712
Z1
G01 Z-13 F400
G02 X283.065 Y88.065 I0.176 J0.176 F500
X283.3 Y87.5 I-0.565 J-0.565 
X282.5 Y86.7 I-0.8 J0 
X281.7 Y87.5 I0 J0.8 
X282.5 Y88.3 I0.8 J0 
X283.065 Y88.065 I0 J-0.8 
X282.712 Y87.712 I-0.176 J-0.176 
G00 Z10
(Esquisse 0)
G90X282.712 Y62.712
Z1
G01 Z-13 F400
G02 X283.065 Y63.065 I0.176 J0.176 F500
X283.3 Y62.5 I-0.565 J-0.565 
X282.5 Y61.7 I-0.8 J0 
X281.7 Y62.5 I0 J0.8 
X282.5 Y63.3 I0.8 J0 
X283.065 Y63.065 I0 J-0.8 
X282.712 Y62.712 I-0.176 J-0.176 
G00 Z10
(Esquisse 0)
G90X282.712 Y37.712
Z1
G01 Z-13 F400
G02 X283.065 Y38.065 I0.176 J0.176 F500
X283.3 Y37.5 I-0.565 J-0.565 
X282.5 Y36.7 I-0.8 J0 
X281.7 Y37.5 I0 J0.8 
X282.5 Y38.3 I0.8 J0 
X283.065 Y38.065 I0 J-0.8 
X282.712 Y37.712 I-0.176 J-0.176 
G00 Z10
(Esquisse 0)
G90X282.712 Y12.712
Z1
G01 Z-13 F400
G02 X283.065 Y13.065 I0.176 J0.176 F500
X283.3 Y12.5 I-0.565 J-0.565 
X282.5 Y11.7 I-0.8 J0 
X281.7 Y12.5 I0 J0.8 
X282.5 Y13.3 I0.8 J0 
X283.065 Y13.065 I0 J-0.8 
X282.712 Y12.712 I-0.176 J-0.176 
G00 Z10
(Esquisse 0)
G90X282.712 Y487.712
Z1
G01 Z-13 F400
G02 X283.065 Y488.065 I0.176 J0.176 F500
X283.3 Y487.5 I-0.565 J-0.565 
X282.5 Y486.7 I-0.8 J0 
X281.7 Y487.5 I0 J0.8 
X282.5 Y488.3 I0.8 J0 
X283.065 Y488.065 I0 J-0.8 
X282.712 Y487.712 I-0.176 J-0.176 
G00 Z10
(Esquisse 0)
G90X332.712 Y12.712
Z1
G01 Z-13 F400
G02 X333.065 Y13.065 I0.176 J0.176 F500
X333.3 Y12.5 I-0.565 J-0.565 
X332.5 Y11.7 I-0.8 J0 
X331.7 Y12.5 I0 J0.8 
X332.5 Y13.3 I0.8 J0 
X333.065 Y13.065 I0 J-0.8 
X332.712 Y12.712 I-0.176 J-0.176 
G00 Z10
(Esquisse 0)
G90X332.712 Y37.712
Z1
G01 Z-13 F400
G02 X333.065 Y38.065 I0.176 J0.176 F500
X333.3 Y37.5 I-0.565 J-0.565 
X332.5 Y36.7 I-0.8 J0 
X331.7 Y37.5 I0 J0.8 
X332.5 Y38.3 I0.8 J0 
X333.065 Y38.065 I0 J-0.8 
X332.712 Y37.712 I-0.176 J-0.176 
G00 Z10
(Esquisse 0)
G90X332.712 Y62.712
Z1
G01 Z-13 F400
G02 X333.065 Y63.065 I0.176 J0.176 F500
X333.3 Y62.5 I-0.565 J-0.565 
X332.5 Y61.7 I-0.8 J0 
X331.7 Y62.5 I0 J0.8 
X332.5 Y63.3 I0.8 J0 
X333.065 Y63.065 I0 J-0.8 
X332.712 Y62.712 I-0.176 J-0.176 
G00 Z10
(Esquisse 0)
G90X332.712 Y87.712
Z1
G01 Z-13 F400
G02 X333.065 Y88.065 I0.176 J0.176 F500
X333.3 Y87.5 I-0.565 J-0.565 
X332.5 Y86.7 I-0.8 J0 
X331.7 Y87.5 I0 J0.8 
X332.5 Y88.3 I0.8 J0 
X333.065 Y88.065 I0 J-0.8 
X332.712 Y87.712 I-0.176 J-0.176 
G00 Z10
(Esquisse 0)
G90X332.712 Y112.712
Z1
G01 Z-13 F400
G02 X333.065 Y113.065 I0.176 J0.176 F500
X333.3 Y112.5 I-0.565 J-0.565 
X332.5 Y111.7 I-0.8 J0 
X331.7 Y112.5 I0 J0.8 
X332.5 Y113.3 I0.8 J0 
X333.065 Y113.065 I0 J-0.8 
X332.712 Y112.712 I-0.176 J-0.176 
G00 Z10
(Esquisse 0)
G90X332.712 Y137.712
Z1
G01 Z-13 F400
G02 X333.065 Y138.065 I0.176 J0.176 F500
X333.3 Y137.5 I-0.565 J-0.565 
X332.5 Y136.7 I-0.8 J0 
X331.7 Y137.5 I0 J0.8 
X332.5 Y138.3 I0.8 J0 
X333.065 Y138.065 I0 J-0.8 
X332.712 Y137.712 I-0.176 J-0.176 
G00 Z10
(Esquisse 0)
G90X332.712 Y162.712
Z1
G01 Z-13 F400
G02 X333.065 Y163.065 I0.176 J0.176 F500
X333.3 Y162.5 I-0.565 J-0.565 
X332.5 Y161.7 I-0.8 J0 
X331.7 Y162.5 I0 J0.8 
X332.5 Y163.3 I0.8 J0 
X333.065 Y163.065 I0 J-0.8 
X332.712 Y162.712 I-0.176 J-0.176 
G00 Z10
(Esquisse 0)
G90X332.712 Y187.712
Z1
G01 Z-13 F400
G02 X333.065 Y188.065 I0.176 J0.176 F500
X333.3 Y187.5 I-0.565 J-0.565 
X332.5 Y186.7 I-0.8 J0 
X331.7 Y187.5 I0 J0.8 
X332.5 Y188.3 I0.8 J0 
X333.065 Y188.065 I0 J-0.8 
X332.712 Y187.712 I-0.176 J-0.176 
G00 Z10
(Esquisse 0)
G90X332.712 Y212.712
Z1
G01 Z-13 F400
G02 X333.065 Y213.065 I0.176 J0.176 F500
X333.3 Y212.5 I-0.565 J-0.565 
X332.5 Y211.7 I-0.8 J0 
X331.7 Y212.5 I0 J0.8 
X332.5 Y213.3 I0.8 J0 
X333.065 Y213.065 I0 J-0.8 
X332.712 Y212.712 I-0.176 J-0.176 
G00 Z10
(Esquisse 0)
G90X332.712 Y237.712
Z1
G01 Z-13 F400
G02 X333.065 Y238.065 I0.176 J0.176 F500
X333.3 Y237.5 I-0.565 J-0.565 
X332.5 Y236.7 I-0.8 J0 
X331.7 Y237.5 I0 J0.8 
X332.5 Y238.3 I0.8 J0 
X333.065 Y238.065 I0 J-0.8 
X332.712 Y237.712 I-0.176 J-0.176 
G00 Z10
(Esquisse 0)
G90X332.712 Y262.712
Z1
G01 Z-13 F400
G02 X333.065 Y263.065 I0.176 J0.176 F500
X333.3 Y262.5 I-0.565 J-0.565 
X332.5 Y261.7 I-0.8 J0 
X331.7 Y262.5 I0 J0.8 
X332.5 Y263.3 I0.8 J0 
X333.065 Y263.065 I0 J-0.8 
X332.712 Y262.712 I-0.176 J-0.176 
G00 Z10
(Esquisse 0)
G90X332.712 Y287.712
Z1
G01 Z-13 F400
G02 X333.065 Y288.065 I0.176 J0.176 F500
X333.3 Y287.5 I-0.565 J-0.565 
X332.5 Y286.7 I-0.8 J0 
X331.7 Y287.5 I0 J0.8 
X332.5 Y288.3 I0.8 J0 
X333.065 Y288.065 I0 J-0.8 
X332.712 Y287.712 I-0.176 J-0.176 
G00 Z10
(Esquisse 0)
G90X332.712 Y312.712
Z1
G01 Z-13 F400
G02 X333.065 Y313.065 I0.176 J0.176 F500
X333.3 Y312.5 I-0.565 J-0.565 
X332.5 Y311.7 I-0.8 J0 
X331.7 Y312.5 I0 J0.8 
X332.5 Y313.3 I0.8 J0 
X333.065 Y313.065 I0 J-0.8 
X332.712 Y312.712 I-0.176 J-0.176 
G00 Z10
(Esquisse 0)
G90X332.712 Y337.712
Z1
G01 Z-13 F400
G02 X333.065 Y338.065 I0.176 J0.176 F500
X333.3 Y337.5 I-0.565 J-0.565 
X332.5 Y336.7 I-0.8 J0 
X331.7 Y337.5 I0 J0.8 
X332.5 Y338.3 I0.8 J0 
X333.065 Y338.065 I0 J-0.8 
X332.712 Y337.712 I-0.176 J-0.176 
G00 Z10
(Esquisse 0)
G90X332.712 Y362.712
Z1
G01 Z-13 F400
G02 X333.065 Y363.065 I0.176 J0.176 F500
X333.3 Y362.5 I-0.565 J-0.565 
X332.5 Y361.7 I-0.8 J0 
X331.7 Y362.5 I0 J0.8 
X332.5 Y363.3 I0.8 J0 
X333.065 Y363.065 I0 J-0.8 
X332.712 Y362.712 I-0.176 J-0.176 
G00 Z10
(Esquisse 0)
G90X332.712 Y387.712
Z1
G01 Z-13 F400
G02 X333.065 Y388.065 I0.176 J0.176 F500
X333.3 Y387.5 I-0.565 J-0.565 
X332.5 Y386.7 I-0.8 J0 
X331.7 Y387.5 I0 J0.8 
X332.5 Y388.3 I0.8 J0 
X333.065 Y388.065 I0 J-0.8 
X332.712 Y387.712 I-0.176 J-0.176 
G00 Z10
(Esquisse 0)
G90X332.712 Y412.712
Z1
G01 Z-13 F400
G02 X333.065 Y413.065 I0.176 J0.176 F500
X333.3 Y412.5 I-0.565 J-0.565 
X332.5 Y411.7 I-0.8 J0 
X331.7 Y412.5 I0 J0.8 
X332.5 Y413.3 I0.8 J0 
X333.065 Y413.065 I0 J-0.8 
X332.712 Y412.712 I-0.176 J-0.176 
G00 Z10
(Esquisse 0)
G90X332.712 Y437.712
Z1
G01 Z-13 F400
G02 X333.065 Y438.065 I0.176 J0.176 F500
X333.3 Y437.5 I-0.565 J-0.565 
X332.5 Y436.7 I-0.8 J0 
X331.7 Y437.5 I0 J0.8 
X332.5 Y438.3 I0.8 J0 
X333.065 Y438.065 I0 J-0.8 
X332.712 Y437.712 I-0.176 J-0.176 
G00 Z10
(Esquisse 0)
G90X332.712 Y462.712
Z1
G01 Z-13 F400
G02 X333.065 Y463.065 I0.176 J0.176 F500
X333.3 Y462.5 I-0.565 J-0.565 
X332.5 Y461.7 I-0.8 J0 
X331.7 Y462.5 I0 J0.8 
X332.5 Y463.3 I0.8 J0 
X333.065 Y463.065 I0 J-0.8 
X332.712 Y462.712 I-0.176 J-0.176 
G00 Z10
(Esquisse 0)
G90X332.712 Y487.712
Z1
G01 Z-13 F400
G02 X333.065 Y488.065 I0.176 J0.176 F500
X333.3 Y487.5 I-0.565 J-0.565 
X332.5 Y486.7 I-0.8 J0 
X331.7 Y487.5 I0 J0.8 
X332.5 Y488.3 I0.8 J0 
X333.065 Y488.065 I0 J-0.8 
X332.712 Y487.712 I-0.176 J-0.176 
G00 Z10
(Esquisse 0)
G90X7.712 Y387.712
Z1
G01 Z-13 F400
G02 X8.065 Y388.065 I0.176 J0.176 F500
X8.3 Y387.5 I-0.565 J-0.565 
X7.5 Y386.7 I-0.8 J0 
X6.7 Y387.5 I0 J0.8 
X7.5 Y388.3 I0.8 J0 
X8.065 Y388.065 I0 J-0.8 
X7.712 Y387.712 I-0.176 J-0.176 
G00 Z10
(Esquisse 0)
G90X7.712 Y412.712
Z1
G01 Z-13 F400
G02 X8.065 Y413.065 I0.176 J0.176 F500
X8.3 Y412.5 I-0.565 J-0.565 
X7.5 Y411.7 I-0.8 J0 
X6.7 Y412.5 I0 J0.8 
X7.5 Y413.3 I0.8 J0 
X8.065 Y413.065 I0 J-0.8 
X7.712 Y412.712 I-0.176 J-0.176 
G00 Z10
(Esquisse 0)
G90X7.712 Y437.712
Z1
G01 Z-13 F400
G02 X8.065 Y438.065 I0.176 J0.176 F500
X8.3 Y437.5 I-0.565 J-0.565 
X7.5 Y436.7 I-0.8 J0 
X6.7 Y437.5 I0 J0.8 
X7.5 Y438.3 I0.8 J0 
X8.065 Y438.065 I0 J-0.8 
X7.712 Y437.712 I-0.176 J-0.176 
G00 Z10
(Esquisse 0)
G90X7.712 Y462.712
Z1
G01 Z-13 F400
G02 X8.065 Y463.065 I0.176 J0.176 F500
X8.3 Y462.5 I-0.565 J-0.565 
X7.5 Y461.7 I-0.8 J0 
X6.7 Y462.5 I0 J0.8 
X7.5 Y463.3 I0.8 J0 
X8.065 Y463.065 I0 J-0.8 
X7.712 Y462.712 I-0.176 J-0.176 
G00 Z10
(Esquisse 0)
G90X7.712 Y487.712
Z1
G01 Z-13 F400
G02 X8.065 Y488.065 I0.176 J0.176 F500
X8.3 Y487.5 I-0.565 J-0.565 
X7.5 Y486.7 I-0.8 J0 
X6.7 Y487.5 I0 J0.8 
X7.5 Y488.3 I0.8 J0 
X8.065 Y488.065 I0 J-0.8 
X7.712 Y487.712 I-0.176 J-0.176 
G00 Z10
(Esquisse 0)
G90X7.712 Y37.712
Z1
G01 Z-13 F400
G02 X8.065 Y38.065 I0.176 J0.176 F500
X8.3 Y37.5 I-0.565 J-0.565 
X7.5 Y36.7 I-0.8 J0 
X6.7 Y37.5 I0 J0.8 
X7.5 Y38.3 I0.8 J0 
X8.065 Y38.065 I0 J-0.8 
X7.712 Y37.712 I-0.176 J-0.176 
G00 Z10
(Esquisse 0)
G90X7.712 Y62.712
Z1
G01 Z-13 F400
G02 X8.065 Y63.065 I0.176 J0.176 F500
X8.3 Y62.5 I-0.565 J-0.565 
X7.5 Y61.7 I-0.8 J0 
X6.7 Y62.5 I0 J0.8 
X7.5 Y63.3 I0.8 J0 
X8.065 Y63.065 I0 J-0.8 
X7.712 Y62.712 I-0.176 J-0.176 
G00 Z10
(Esquisse 0)
G90X7.712 Y87.712
Z1
G01 Z-13 F400
G02 X8.065 Y88.065 I0.176 J0.176 F500
X8.3 Y87.5 I-0.565 J-0.565 
X7.5 Y86.7 I-0.8 J0 
X6.7 Y87.5 I0 J0.8 
X7.5 Y88.3 I0.8 J0 
X8.065 Y88.065 I0 J-0.8 
X7.712 Y87.712 I-0.176 J-0.176 
G00 Z10
(Esquisse 0)
G90X7.712 Y112.712
Z1
G01 Z-13 F400
G02 X8.065 Y113.065 I0.176 J0.176 F500
X8.3 Y112.5 I-0.565 J-0.565 
X7.5 Y111.7 I-0.8 J0 
X6.7 Y112.5 I0 J0.8 
X7.5 Y113.3 I0.8 J0 
X8.065 Y113.065 I0 J-0.8 
X7.712 Y112.712 I-0.176 J-0.176 
G00 Z10
(Esquisse 0)
G90X7.712 Y137.712
Z1
G01 Z-13 F400
G02 X8.065 Y138.065 I0.176 J0.176 F500
X8.3 Y137.5 I-0.565 J-0.565 
X7.5 Y136.7 I-0.8 J0 
X6.7 Y137.5 I0 J0.8 
X7.5 Y138.3 I0.8 J0 
X8.065 Y138.065 I0 J-0.8 
X7.712 Y137.712 I-0.176 J-0.176 
G00 Z10
(Esquisse 0)
G90X7.712 Y162.712
Z1
G01 Z-13 F400
G02 X8.065 Y163.065 I0.176 J0.176 F500
X8.3 Y162.5 I-0.565 J-0.565 
X7.5 Y161.7 I-0.8 J0 
X6.7 Y162.5 I0 J0.8 
X7.5 Y163.3 I0.8 J0 
X8.065 Y163.065 I0 J-0.8 
X7.712 Y162.712 I-0.176 J-0.176 
G00 Z10
(Esquisse 0)
G90X7.712 Y187.712
Z1
G01 Z-13 F400
G02 X8.065 Y188.065 I0.176 J0.176 F500
X8.3 Y187.5 I-0.565 J-0.565 
X7.5 Y186.7 I-0.8 J0 
X6.7 Y187.5 I0 J0.8 
X7.5 Y188.3 I0.8 J0 
X8.065 Y188.065 I0 J-0.8 
X7.712 Y187.712 I-0.176 J-0.176 
G00 Z10
(Esquisse 0)
G90X7.712 Y212.712
Z1
G01 Z-13 F400
G02 X8.065 Y213.065 I0.176 J0.176 F500
X8.3 Y212.5 I-0.565 J-0.565 
X7.5 Y211.7 I-0.8 J0 
X6.7 Y212.5 I0 J0.8 
X7.5 Y213.3 I0.8 J0 
X8.065 Y213.065 I0 J-0.8 
X7.712 Y212.712 I-0.176 J-0.176 
G00 Z10
(Esquisse 0)
G90X7.712 Y237.712
Z1
G01 Z-13 F400
G02 X8.065 Y238.065 I0.176 J0.176 F500
X8.3 Y237.5 I-0.565 J-0.565 
X7.5 Y236.7 I-0.8 J0 
X6.7 Y237.5 I0 J0.8 
X7.5 Y238.3 I0.8 J0 
X8.065 Y238.065 I0 J-0.8 
X7.712 Y237.712 I-0.176 J-0.176 
G00 Z10
(Esquisse 0)
G90X7.712 Y262.712
Z1
G01 Z-13 F400
G02 X8.065 Y263.065 I0.176 J0.176 F500
X8.3 Y262.5 I-0.565 J-0.565 
X7.5 Y261.7 I-0.8 J0 
X6.7 Y262.5 I0 J0.8 
X7.5 Y263.3 I0.8 J0 
X8.065 Y263.065 I0 J-0.8 
X7.712 Y262.712 I-0.176 J-0.176 
G00 Z10
(Esquisse 0)
G90X7.712 Y287.712
Z1
G01 Z-13 F400
G02 X8.065 Y288.065 I0.176 J0.176 F500
X8.3 Y287.5 I-0.565 J-0.565 
X7.5 Y286.7 I-0.8 J0 
X6.7 Y287.5 I0 J0.8 
X7.5 Y288.3 I0.8 J0 
X8.065 Y288.065 I0 J-0.8 
X7.712 Y287.712 I-0.176 J-0.176 
G00 Z10
(Esquisse 0)
G90X7.712 Y312.712
Z1
G01 Z-13 F400
G02 X8.065 Y313.065 I0.176 J0.176 F500
X8.3 Y312.5 I-0.565 J-0.565 
X7.5 Y311.7 I-0.8 J0 
X6.7 Y312.5 I0 J0.8 
X7.5 Y313.3 I0.8 J0 
X8.065 Y313.065 I0 J-0.8 
X7.712 Y312.712 I-0.176 J-0.176 
G00 Z10
(Esquisse 0)
G90X7.712 Y337.712
Z1
G01 Z-13 F400
G02 X8.065 Y338.065 I0.176 J0.176 F500
X8.3 Y337.5 I-0.565 J-0.565 
X7.5 Y336.7 I-0.8 J0 
X6.7 Y337.5 I0 J0.8 
X7.5 Y338.3 I0.8 J0 
X8.065 Y338.065 I0 J-0.8 
X7.712 Y337.712 I-0.176 J-0.176 
G00 Z10
(Esquisse 0)
G90X7.712 Y362.712
Z1
G01 Z-13 F400
G02 X8.065 Y363.065 I0.176 J0.176 F500
X8.3 Y362.5 I-0.565 J-0.565 
X7.5 Y361.7 I-0.8 J0 
X6.7 Y362.5 I0 J0.8 
X7.5 Y363.3 I0.8 J0 
X8.065 Y363.065 I0 J-0.8 
X7.712 Y362.712 I-0.176 J-0.176 
G00 Z10
(Esquisse 0)
G90X57.712 Y387.712
Z1
G01 Z-13 F400
G02 X58.065 Y388.065 I0.176 J0.176 F500
X58.3 Y387.5 I-0.565 J-0.565 
X57.5 Y386.7 I-0.8 J0 
X56.7 Y387.5 I0 J0.8 
X57.5 Y388.3 I0.8 J0 
X58.065 Y388.065 I0 J-0.8 
X57.712 Y387.712 I-0.176 J-0.176 
G00 Z10
(Esquisse 0)
G90X57.712 Y412.712
Z1
G01 Z-13 F400
G02 X58.065 Y413.065 I0.176 J0.176 F500
X58.3 Y412.5 I-0.565 J-0.565 
X57.5 Y411.7 I-0.8 J0 
X56.7 Y412.5 I0 J0.8 
X57.5 Y413.3 I0.8 J0 
X58.065 Y413.065 I0 J-0.8 
X57.712 Y412.712 I-0.176 J-0.176 
G00 Z10
(Esquisse 0)
G90X57.712 Y437.712
Z1
G01 Z-13 F400
G02 X58.065 Y438.065 I0.176 J0.176 F500
X58.3 Y437.5 I-0.565 J-0.565 
X57.5 Y436.7 I-0.8 J0 
X56.7 Y437.5 I0 J0.8 
X57.5 Y438.3 I0.8 J0 
X58.065 Y438.065 I0 J-0.8 
X57.712 Y437.712 I-0.176 J-0.176 
G00 Z10
(Esquisse 0)
G90X57.712 Y462.712
Z1
G01 Z-13 F400
G02 X58.065 Y463.065 I0.176 J0.176 F500
X58.3 Y462.5 I-0.565 J-0.565 
X57.5 Y461.7 I-0.8 J0 
X56.7 Y462.5 I0 J0.8 
X57.5 Y463.3 I0.8 J0 
X58.065 Y463.065 I0 J-0.8 
X57.712 Y462.712 I-0.176 J-0.176 
G00 Z10
(Esquisse 0)
G90X57.712 Y487.712
Z1
G01 Z-13 F400
G02 X58.065 Y488.065 I0.176 J0.176 F500
X58.3 Y487.5 I-0.565 J-0.565 
X57.5 Y486.7 I-0.8 J0 
X56.7 Y487.5 I0 J0.8 
X57.5 Y488.3 I0.8 J0 
X58.065 Y488.065 I0 J-0.8 
X57.712 Y487.712 I-0.176 J-0.176 
G00 Z10
(Esquisse 0)
G90X57.712 Y37.712
Z1
G01 Z-13 F400
G02 X58.065 Y38.065 I0.176 J0.176 F500
X58.3 Y37.5 I-0.565 J-0.565 
X57.5 Y36.7 I-0.8 J0 
X56.7 Y37.5 I0 J0.8 
X57.5 Y38.3 I0.8 J0 
X58.065 Y38.065 I0 J-0.8 
X57.712 Y37.712 I-0.176 J-0.176 
G00 Z10
(Esquisse 0)
G90X57.712 Y62.712
Z1
G01 Z-13 F400
G02 X58.065 Y63.065 I0.176 J0.176 F500
X58.3 Y62.5 I-0.565 J-0.565 
X57.5 Y61.7 I-0.8 J0 
X56.7 Y62.5 I0 J0.8 
X57.5 Y63.3 I0.8 J0 
X58.065 Y63.065 I0 J-0.8 
X57.712 Y62.712 I-0.176 J-0.176 
G00 Z10
(Esquisse 0)
G90X57.712 Y87.712
Z1
G01 Z-13 F400
G02 X58.065 Y88.065 I0.176 J0.176 F500
X58.3 Y87.5 I-0.565 J-0.565 
X57.5 Y86.7 I-0.8 J0 
X56.7 Y87.5 I0 J0.8 
X57.5 Y88.3 I0.8 J0 
X58.065 Y88.065 I0 J-0.8 
X57.712 Y87.712 I-0.176 J-0.176 
G00 Z10
(Esquisse 0)
G90X57.712 Y112.712
Z1
G01 Z-13 F400
G02 X58.065 Y113.065 I0.176 J0.176 F500
X58.3 Y112.5 I-0.565 J-0.565 
X57.5 Y111.7 I-0.8 J0 
X56.7 Y112.5 I0 J0.8 
X57.5 Y113.3 I0.8 J0 
X58.065 Y113.065 I0 J-0.8 
X57.712 Y112.712 I-0.176 J-0.176 
G00 Z10
(Esquisse 0)
G90X57.712 Y137.712
Z1
G01 Z-13 F400
G02 X58.065 Y138.065 I0.176 J0.176 F500
X58.3 Y137.5 I-0.565 J-0.565 
X57.5 Y136.7 I-0.8 J0 
X56.7 Y137.5 I0 J0.8 
X57.5 Y138.3 I0.8 J0 
X58.065 Y138.065 I0 J-0.8 
X57.712 Y137.712 I-0.176 J-0.176 
G00 Z10
(Esquisse 0)
G90X57.712 Y162.712
Z1
G01 Z-13 F400
G02 X58.065 Y163.065 I0.176 J0.176 F500
X58.3 Y162.5 I-0.565 J-0.565 
X57.5 Y161.7 I-0.8 J0 
X56.7 Y162.5 I0 J0.8 
X57.5 Y163.3 I0.8 J0 
X58.065 Y163.065 I0 J-0.8 
X57.712 Y162.712 I-0.176 J-0.176 
G00 Z10
(Esquisse 0)
G90X57.712 Y187.712
Z1
G01 Z-13 F400
G02 X58.065 Y188.065 I0.176 J0.176 F500
X58.3 Y187.5 I-0.565 J-0.565 
X57.5 Y186.7 I-0.8 J0 
X56.7 Y187.5 I0 J0.8 
X57.5 Y188.3 I0.8 J0 
X58.065 Y188.065 I0 J-0.8 
X57.712 Y187.712 I-0.176 J-0.176 
G00 Z10
(Esquisse 0)
G90X57.712 Y212.712
Z1
G01 Z-13 F400
G02 X58.065 Y213.065 I0.176 J0.176 F500
X58.3 Y212.5 I-0.565 J-0.565 
X57.5 Y211.7 I-0.8 J0 
X56.7 Y212.5 I0 J0.8 
X57.5 Y213.3 I0.8 J0 
X58.065 Y213.065 I0 J-0.8 
X57.712 Y212.712 I-0.176 J-0.176 
G00 Z10
(Esquisse 0)
G90X57.712 Y237.712
Z1
G01 Z-13 F400
G02 X58.065 Y238.065 I0.176 J0.176 F500
X58.3 Y237.5 I-0.565 J-0.565 
X57.5 Y236.7 I-0.8 J0 
X56.7 Y237.5 I0 J0.8 
X57.5 Y238.3 I0.8 J0 
X58.065 Y238.065 I0 J-0.8 
X57.712 Y237.712 I-0.176 J-0.176 
G00 Z10
(Esquisse 0)
G90X57.712 Y262.712
Z1
G01 Z-13 F400
G02 X58.065 Y263.065 I0.176 J0.176 F500
X58.3 Y262.5 I-0.565 J-0.565 
X57.5 Y261.7 I-0.8 J0 
X56.7 Y262.5 I0 J0.8 
X57.5 Y263.3 I0.8 J0 
X58.065 Y263.065 I0 J-0.8 
X57.712 Y262.712 I-0.176 J-0.176 
G00 Z10
(Esquisse 0)
G90X57.712 Y287.712
Z1
G01 Z-13 F400
G02 X58.065 Y288.065 I0.176 J0.176 F500
X58.3 Y287.5 I-0.565 J-0.565 
X57.5 Y286.7 I-0.8 J0 
X56.7 Y287.5 I0 J0.8 
X57.5 Y288.3 I0.8 J0 
X58.065 Y288.065 I0 J-0.8 
X57.712 Y287.712 I-0.176 J-0.176 
G00 Z10
(Esquisse 0)
G90X57.712 Y312.712
Z1
G01 Z-13 F400
G02 X58.065 Y313.065 I0.176 J0.176 F500
X58.3 Y312.5 I-0.565 J-0.565 
X57.5 Y311.7 I-0.8 J0 
X56.7 Y312.5 I0 J0.8 
X57.5 Y313.3 I0.8 J0 
X58.065 Y313.065 I0 J-0.8 
X57.712 Y312.712 I-0.176 J-0.176 
G00 Z10
(Esquisse 0)
G90X57.712 Y337.712
Z1
G01 Z-13 F400
G02 X58.065 Y338.065 I0.176 J0.176 F500
X58.3 Y337.5 I-0.565 J-0.565 
X57.5 Y336.7 I-0.8 J0 
X56.7 Y337.5 I0 J0.8 
X57.5 Y338.3 I0.8 J0 
X58.065 Y338.065 I0 J-0.8 
X57.712 Y337.712 I-0.176 J-0.176 
G00 Z10
(Esquisse 0)
G90X57.712 Y362.712
Z1
G01 Z-13 F400
G02 X58.065 Y363.065 I0.176 J0.176 F500
X58.3 Y362.5 I-0.565 J-0.565 
X57.5 Y361.7 I-0.8 J0 
X56.7 Y362.5 I0 J0.8 
X57.5 Y363.3 I0.8 J0 
X58.065 Y363.065 I0 J-0.8 
X57.712 Y362.712 I-0.176 J-0.176 
G00 Z10
(Esquisse 0)
G90X107.712 Y387.712
Z1
G01 Z-13 F400
G02 X108.065 Y388.065 I0.176 J0.176 F500
X108.3 Y387.5 I-0.565 J-0.565 
X107.5 Y386.7 I-0.8 J0 
X106.7 Y387.5 I0 J0.8 
X107.5 Y388.3 I0.8 J0 
X108.065 Y388.065 I0 J-0.8 
X107.712 Y387.712 I-0.176 J-0.176 
G00 Z10
(Esquisse 0)
G90X107.712 Y412.712
Z1
G01 Z-13 F400
G02 X108.065 Y413.065 I0.176 J0.176 F500
X108.3 Y412.5 I-0.565 J-0.565 
X107.5 Y411.7 I-0.8 J0 
X106.7 Y412.5 I0 J0.8 
X107.5 Y413.3 I0.8 J0 
X108.065 Y413.065 I0 J-0.8 
X107.712 Y412.712 I-0.176 J-0.176 
G00 Z10
(Esquisse 0)
G90X107.712 Y437.712
Z1
G01 Z-13 F400
G02 X108.065 Y438.065 I0.176 J0.176 F500
X108.3 Y437.5 I-0.565 J-0.565 
X107.5 Y436.7 I-0.8 J0 
X106.7 Y437.5 I0 J0.8 
X107.5 Y438.3 I0.8 J0 
X108.065 Y438.065 I0 J-0.8 
X107.712 Y437.712 I-0.176 J-0.176 
G00 Z10
(Esquisse 0)
G90X107.712 Y462.712
Z1
G01 Z-13 F400
G02 X108.065 Y463.065 I0.176 J0.176 F500
X108.3 Y462.5 I-0.565 J-0.565 
X107.5 Y461.7 I-0.8 J0 
X106.7 Y462.5 I0 J0.8 
X107.5 Y463.3 I0.8 J0 
X108.065 Y463.065 I0 J-0.8 
X107.712 Y462.712 I-0.176 J-0.176 
G00 Z10
(Esquisse 0)
G90X107.712 Y487.712
Z1
G01 Z-13 F400
G02 X108.065 Y488.065 I0.176 J0.176 F500
X108.3 Y487.5 I-0.565 J-0.565 
X107.5 Y486.7 I-0.8 J0 
X106.7 Y487.5 I0 J0.8 
X107.5 Y488.3 I0.8 J0 
X108.065 Y488.065 I0 J-0.8 
X107.712 Y487.712 I-0.176 J-0.176 
G00 Z10
(Esquisse 0)
G90X107.712 Y12.712
Z1
G01 Z-13 F400
G02 X108.065 Y13.065 I0.176 J0.176 F500
X108.3 Y12.5 I-0.565 J-0.565 
X107.5 Y11.7 I-0.8 J0 
X106.7 Y12.5 I0 J0.8 
X107.5 Y13.3 I0.8 J0 
X108.065 Y13.065 I0 J-0.8 
X107.712 Y12.712 I-0.176 J-0.176 
G00 Z10
(Esquisse 0)
G90X107.712 Y37.712
Z1
G01 Z-13 F400
G02 X108.065 Y38.065 I0.176 J0.176 F500
X108.3 Y37.5 I-0.565 J-0.565 
X107.5 Y36.7 I-0.8 J0 
X106.7 Y37.5 I0 J0.8 
X107.5 Y38.3 I0.8 J0 
X108.065 Y38.065 I0 J-0.8 
X107.712 Y37.712 I-0.176 J-0.176 
G00 Z10
(Esquisse 0)
G90X107.712 Y62.712
Z1
G01 Z-13 F400
G02 X108.065 Y63.065 I0.176 J0.176 F500
X108.3 Y62.5 I-0.565 J-0.565 
X107.5 Y61.7 I-0.8 J0 
X106.7 Y62.5 I0 J0.8 
X107.5 Y63.3 I0.8 J0 
X108.065 Y63.065 I0 J-0.8 
X107.712 Y62.712 I-0.176 J-0.176 
G00 Z10
(Esquisse 0)
G90X107.712 Y87.712
Z1
G01 Z-13 F400
G02 X108.065 Y88.065 I0.176 J0.176 F500
X108.3 Y87.5 I-0.565 J-0.565 
X107.5 Y86.7 I-0.8 J0 
X106.7 Y87.5 I0 J0.8 
X107.5 Y88.3 I0.8 J0 
X108.065 Y88.065 I0 J-0.8 
X107.712 Y87.712 I-0.176 J-0.176 
G00 Z10
(Esquisse 0)
G90X107.712 Y112.712
Z1
G01 Z-13 F400
G02 X108.065 Y113.065 I0.176 J0.176 F500
X108.3 Y112.5 I-0.565 J-0.565 
X107.5 Y111.7 I-0.8 J0 
X106.7 Y112.5 I0 J0.8 
X107.5 Y113.3 I0.8 J0 
X108.065 Y113.065 I0 J-0.8 
X107.712 Y112.712 I-0.176 J-0.176 
G00 Z10
(Esquisse 0)
G90X107.712 Y137.712
Z1
G01 Z-13 F400
G02 X108.065 Y138.065 I0.176 J0.176 F500
X108.3 Y137.5 I-0.565 J-0.565 
X107.5 Y136.7 I-0.8 J0 
X106.7 Y137.5 I0 J0.8 
X107.5 Y138.3 I0.8 J0 
X108.065 Y138.065 I0 J-0.8 
X107.712 Y137.712 I-0.176 J-0.176 
G00 Z10
(Esquisse 0)
G90X107.712 Y162.712
Z1
G01 Z-13 F400
G02 X108.065 Y163.065 I0.176 J0.176 F500
X108.3 Y162.5 I-0.565 J-0.565 
X107.5 Y161.7 I-0.8 J0 
X106.7 Y162.5 I0 J0.8 
X107.5 Y163.3 I0.8 J0 
X108.065 Y163.065 I0 J-0.8 
X107.712 Y162.712 I-0.176 J-0.176 
G00 Z10
(Esquisse 0)
G90X107.712 Y187.712
Z1
G01 Z-13 F400
G02 X108.065 Y188.065 I0.176 J0.176 F500
X108.3 Y187.5 I-0.565 J-0.565 
X107.5 Y186.7 I-0.8 J0 
X106.7 Y187.5 I0 J0.8 
X107.5 Y188.3 I0.8 J0 
X108.065 Y188.065 I0 J-0.8 
X107.712 Y187.712 I-0.176 J-0.176 
G00 Z10
(Esquisse 0)
G90X107.712 Y212.712
Z1
G01 Z-13 F400
G02 X108.065 Y213.065 I0.176 J0.176 F500
X108.3 Y212.5 I-0.565 J-0.565 
X107.5 Y211.7 I-0.8 J0 
X106.7 Y212.5 I0 J0.8 
X107.5 Y213.3 I0.8 J0 
X108.065 Y213.065 I0 J-0.8 
X107.712 Y212.712 I-0.176 J-0.176 
G00 Z10
(Esquisse 0)
G90X107.712 Y237.712
Z1
G01 Z-13 F400
G02 X108.065 Y238.065 I0.176 J0.176 F500
X108.3 Y237.5 I-0.565 J-0.565 
X107.5 Y236.7 I-0.8 J0 
X106.7 Y237.5 I0 J0.8 
X107.5 Y238.3 I0.8 J0 
X108.065 Y238.065 I0 J-0.8 
X107.712 Y237.712 I-0.176 J-0.176 
G00 Z10
(Esquisse 0)
G90X107.712 Y262.712
Z1
G01 Z-13 F400
G02 X108.065 Y263.065 I0.176 J0.176 F500
X108.3 Y262.5 I-0.565 J-0.565 
X107.5 Y261.7 I-0.8 J0 
X106.7 Y262.5 I0 J0.8 
X107.5 Y263.3 I0.8 J0 
X108.065 Y263.065 I0 J-0.8 
X107.712 Y262.712 I-0.176 J-0.176 
G00 Z10
(Esquisse 0)
G90X107.712 Y287.712
Z1
G01 Z-13 F400
G02 X108.065 Y288.065 I0.176 J0.176 F500
X108.3 Y287.5 I-0.565 J-0.565 
X107.5 Y286.7 I-0.8 J0 
X106.7 Y287.5 I0 J0.8 
X107.5 Y288.3 I0.8 J0 
X108.065 Y288.065 I0 J-0.8 
X107.712 Y287.712 I-0.176 J-0.176 
G00 Z10
(Esquisse 0)
G90X107.712 Y312.712
Z1
G01 Z-13 F400
G02 X108.065 Y313.065 I0.176 J0.176 F500
X108.3 Y312.5 I-0.565 J-0.565 
X107.5 Y311.7 I-0.8 J0 
X106.7 Y312.5 I0 J0.8 
X107.5 Y313.3 I0.8 J0 
X108.065 Y313.065 I0 J-0.8 
X107.712 Y312.712 I-0.176 J-0.176 
G00 Z10
(Esquisse 0)
G90X107.712 Y337.712
Z1
G01 Z-13 F400
G02 X108.065 Y338.065 I0.176 J0.176 F500
X108.3 Y337.5 I-0.565 J-0.565 
X107.5 Y336.7 I-0.8 J0 
X106.7 Y337.5 I0 J0.8 
X107.5 Y338.3 I0.8 J0 
X108.065 Y338.065 I0 J-0.8 
X107.712 Y337.712 I-0.176 J-0.176 
G00 Z10
(Esquisse 0)
G90X107.712 Y362.712
Z1
G01 Z-13 F400
G02 X108.065 Y363.065 I0.176 J0.176 F500
X108.3 Y362.5 I-0.565 J-0.565 
X107.5 Y361.7 I-0.8 J0 
X106.7 Y362.5 I0 J0.8 
X107.5 Y363.3 I0.8 J0 
X108.065 Y363.065 I0 J-0.8 
X107.712 Y362.712 I-0.176 J-0.176 
G00 Z10
(Esquisse 0)
G90X157.712 Y387.712
Z1
G01 Z-13 F400
G02 X158.065 Y388.065 I0.176 J0.176 F500
X158.3 Y387.5 I-0.565 J-0.565 
X157.5 Y386.7 I-0.8 J0 
X156.7 Y387.5 I0 J0.8 
X157.5 Y388.3 I0.8 J0 
X158.065 Y388.065 I0 J-0.8 
X157.712 Y387.712 I-0.176 J-0.176 
G00 Z10
(Esquisse 0)
G90X157.712 Y412.712
Z1
G01 Z-13 F400
G02 X158.065 Y413.065 I0.176 J0.176 F500
X158.3 Y412.5 I-0.565 J-0.565 
X157.5 Y411.7 I-0.8 J0 
X156.7 Y412.5 I0 J0.8 
X157.5 Y413.3 I0.8 J0 
X158.065 Y413.065 I0 J-0.8 
X157.712 Y412.712 I-0.176 J-0.176 
G00 Z10
(Esquisse 0)
G90X157.712 Y437.712
Z1
G01 Z-13 F400
G02 X158.065 Y438.065 I0.176 J0.176 F500
X158.3 Y437.5 I-0.565 J-0.565 
X157.5 Y436.7 I-0.8 J0 
X156.7 Y437.5 I0 J0.8 
X157.5 Y438.3 I0.8 J0 
X158.065 Y438.065 I0 J-0.8 
X157.712 Y437.712 I-0.176 J-0.176 
G00 Z10
(Esquisse 0)
G90X157.712 Y462.712
Z1
G01 Z-13 F400
G02 X158.065 Y463.065 I0.176 J0.176 F500
X158.3 Y462.5 I-0.565 J-0.565 
X157.5 Y461.7 I-0.8 J0 
X156.7 Y462.5 I0 J0.8 
X157.5 Y463.3 I0.8 J0 
X158.065 Y463.065 I0 J-0.8 
X157.712 Y462.712 I-0.176 J-0.176 
G00 Z10
(Esquisse 0)
G90X157.712 Y487.712
Z1
G01 Z-13 F400
G02 X158.065 Y488.065 I0.176 J0.176 F500
X158.3 Y487.5 I-0.565 J-0.565 
X157.5 Y486.7 I-0.8 J0 
X156.7 Y487.5 I0 J0.8 
X157.5 Y488.3 I0.8 J0 
X158.065 Y488.065 I0 J-0.8 
X157.712 Y487.712 I-0.176 J-0.176 
G00 Z10
(Esquisse 0)
G90X157.712 Y12.712
Z1
G01 Z-13 F400
G02 X158.065 Y13.065 I0.176 J0.176 F500
X158.3 Y12.5 I-0.565 J-0.565 
X157.5 Y11.7 I-0.8 J0 
X156.7 Y12.5 I0 J0.8 
X157.5 Y13.3 I0.8 J0 
X158.065 Y13.065 I0 J-0.8 
X157.712 Y12.712 I-0.176 J-0.176 
G00 Z10
(Esquisse 0)
G90X157.712 Y37.712
Z1
G01 Z-13 F400
G02 X158.065 Y38.065 I0.176 J0.176 F500
X158.3 Y37.5 I-0.565 J-0.565 
X157.5 Y36.7 I-0.8 J0 
X156.7 Y37.5 I0 J0.8 
X157.5 Y38.3 I0.8 J0 
X158.065 Y38.065 I0 J-0.8 
X157.712 Y37.712 I-0.176 J-0.176 
G00 Z10
(Esquisse 0)
G90X157.712 Y62.712
Z1
G01 Z-13 F400
G02 X158.065 Y63.065 I0.176 J0.176 F500
X158.3 Y62.5 I-0.565 J-0.565 
X157.5 Y61.7 I-0.8 J0 
X156.7 Y62.5 I0 J0.8 
X157.5 Y63.3 I0.8 J0 
X158.065 Y63.065 I0 J-0.8 
X157.712 Y62.712 I-0.176 J-0.176 
G00 Z10
(Esquisse 0)
G90X157.712 Y87.712
Z1
G01 Z-13 F400
G02 X158.065 Y88.065 I0.176 J0.176 F500
X158.3 Y87.5 I-0.565 J-0.565 
X157.5 Y86.7 I-0.8 J0 
X156.7 Y87.5 I0 J0.8 
X157.5 Y88.3 I0.8 J0 
X158.065 Y88.065 I0 J-0.8 
X157.712 Y87.712 I-0.176 J-0.176 
G00 Z10
(Esquisse 0)
G90X157.712 Y112.712
Z1
G01 Z-13 F400
G02 X158.065 Y113.065 I0.176 J0.176 F500
X158.3 Y112.5 I-0.565 J-0.565 
X157.5 Y111.7 I-0.8 J0 
X156.7 Y112.5 I0 J0.8 
X157.5 Y113.3 I0.8 J0 
X158.065 Y113.065 I0 J-0.8 
X157.712 Y112.712 I-0.176 J-0.176 
G00 Z10
(Esquisse 0)
G90X157.712 Y137.712
Z1
G01 Z-13 F400
G02 X158.065 Y138.065 I0.176 J0.176 F500
X158.3 Y137.5 I-0.565 J-0.565 
X157.5 Y136.7 I-0.8 J0 
X156.7 Y137.5 I0 J0.8 
X157.5 Y138.3 I0.8 J0 
X158.065 Y138.065 I0 J-0.8 
X157.712 Y137.712 I-0.176 J-0.176 
G00 Z10
(Esquisse 0)
G90X157.712 Y162.712
Z1
G01 Z-13 F400
G02 X158.065 Y163.065 I0.176 J0.176 F500
X158.3 Y162.5 I-0.565 J-0.565 
X157.5 Y161.7 I-0.8 J0 
X156.7 Y162.5 I0 J0.8 
X157.5 Y163.3 I0.8 J0 
X158.065 Y163.065 I0 J-0.8 
X157.712 Y162.712 I-0.176 J-0.176 
G00 Z10
(Esquisse 0)
G90X157.712 Y187.712
Z1
G01 Z-13 F400
G02 X158.065 Y188.065 I0.176 J0.176 F500
X158.3 Y187.5 I-0.565 J-0.565 
X157.5 Y186.7 I-0.8 J0 
X156.7 Y187.5 I0 J0.8 
X157.5 Y188.3 I0.8 J0 
X158.065 Y188.065 I0 J-0.8 
X157.712 Y187.712 I-0.176 J-0.176 
G00 Z10
(Esquisse 0)
G90X157.712 Y212.712
Z1
G01 Z-13 F400
G02 X158.065 Y213.065 I0.176 J0.176 F500
X158.3 Y212.5 I-0.565 J-0.565 
X157.5 Y211.7 I-0.8 J0 
X156.7 Y212.5 I0 J0.8 
X157.5 Y213.3 I0.8 J0 
X158.065 Y213.065 I0 J-0.8 
X157.712 Y212.712 I-0.176 J-0.176 
G00 Z10
(Esquisse 0)
G90X157.712 Y237.712
Z1
G01 Z-13 F400
G02 X158.065 Y238.065 I0.176 J0.176 F500
X158.3 Y237.5 I-0.565 J-0.565 
X157.5 Y236.7 I-0.8 J0 
X156.7 Y237.5 I0 J0.8 
X157.5 Y238.3 I0.8 J0 
X158.065 Y238.065 I0 J-0.8 
X157.712 Y237.712 I-0.176 J-0.176 
G00 Z10
(Esquisse 0)
G90X157.712 Y262.712
Z1
G01 Z-13 F400
G02 X158.065 Y263.065 I0.176 J0.176 F500
X158.3 Y262.5 I-0.565 J-0.565 
X157.5 Y261.7 I-0.8 J0 
X156.7 Y262.5 I0 J0.8 
X157.5 Y263.3 I0.8 J0 
X158.065 Y263.065 I0 J-0.8 
X157.712 Y262.712 I-0.176 J-0.176 
G00 Z10
(Esquisse 0)
G90X157.712 Y287.712
Z1
G01 Z-13 F400
G02 X158.065 Y288.065 I0.176 J0.176 F500
X158.3 Y287.5 I-0.565 J-0.565 
X157.5 Y286.7 I-0.8 J0 
X156.7 Y287.5 I0 J0.8 
X157.5 Y288.3 I0.8 J0 
X158.065 Y288.065 I0 J-0.8 
X157.712 Y287.712 I-0.176 J-0.176 
G00 Z10
(Esquisse 0)
G90X157.712 Y312.712
Z1
G01 Z-13 F400
G02 X158.065 Y313.065 I0.176 J0.176 F500
X158.3 Y312.5 I-0.565 J-0.565 
X157.5 Y311.7 I-0.8 J0 
X156.7 Y312.5 I0 J0.8 
X157.5 Y313.3 I0.8 J0 
X158.065 Y313.065 I0 J-0.8 
X157.712 Y312.712 I-0.176 J-0.176 
G00 Z10
(Esquisse 0)
G90X157.712 Y337.712
Z1
G01 Z-13 F400
G02 X158.065 Y338.065 I0.176 J0.176 F500
X158.3 Y337.5 I-0.565 J-0.565 
X157.5 Y336.7 I-0.8 J0 
X156.7 Y337.5 I0 J0.8 
X157.5 Y338.3 I0.8 J0 
X158.065 Y338.065 I0 J-0.8 
X157.712 Y337.712 I-0.176 J-0.176 
G00 Z10
(Esquisse 0)
G90X157.712 Y362.712
Z1
G01 Z-13 F400
G02 X158.065 Y363.065 I0.176 J0.176 F500
X158.3 Y362.5 I-0.565 J-0.565 
X157.5 Y361.7 I-0.8 J0 
X156.7 Y362.5 I0 J0.8 
X157.5 Y363.3 I0.8 J0 
X158.065 Y363.065 I0 J-0.8 
X157.712 Y362.712 I-0.176 J-0.176 
G00 Z10
(Esquisse 0)
G90X207.712 Y387.712
Z1
G01 Z-13 F400
G02 X208.065 Y388.065 I0.176 J0.176 F500
X208.3 Y387.5 I-0.565 J-0.565 
X207.5 Y386.7 I-0.8 J0 
X206.7 Y387.5 I0 J0.8 
X207.5 Y388.3 I0.8 J0 
X208.065 Y388.065 I0 J-0.8 
X207.712 Y387.712 I-0.176 J-0.176 
G00 Z10
(Esquisse 0)
G90X207.712 Y412.712
Z1
G01 Z-13 F400
G02 X208.065 Y413.065 I0.176 J0.176 F500
X208.3 Y412.5 I-0.565 J-0.565 
X207.5 Y411.7 I-0.8 J0 
X206.7 Y412.5 I0 J0.8 
X207.5 Y413.3 I0.8 J0 
X208.065 Y413.065 I0 J-0.8 
X207.712 Y412.712 I-0.176 J-0.176 
G00 Z10
(Esquisse 0)
G90X207.712 Y437.712
Z1
G01 Z-13 F400
G02 X208.065 Y438.065 I0.176 J0.176 F500
X208.3 Y437.5 I-0.565 J-0.565 
X207.5 Y436.7 I-0.8 J0 
X206.7 Y437.5 I0 J0.8 
X207.5 Y438.3 I0.8 J0 
X208.065 Y438.065 I0 J-0.8 
X207.712 Y437.712 I-0.176 J-0.176 
G00 Z10
(Esquisse 0)
G90X207.712 Y462.712
Z1
G01 Z-13 F400
G02 X208.065 Y463.065 I0.176 J0.176 F500
X208.3 Y462.5 I-0.565 J-0.565 
X207.5 Y461.7 I-0.8 J0 
X206.7 Y462.5 I0 J0.8 
X207.5 Y463.3 I0.8 J0 
X208.065 Y463.065 I0 J-0.8 
X207.712 Y462.712 I-0.176 J-0.176 
G00 Z10
(Esquisse 0)
G90X207.712 Y487.712
Z1
G01 Z-13 F400
G02 X208.065 Y488.065 I0.176 J0.176 F500
X208.3 Y487.5 I-0.565 J-0.565 
X207.5 Y486.7 I-0.8 J0 
X206.7 Y487.5 I0 J0.8 
X207.5 Y488.3 I0.8 J0 
X208.065 Y488.065 I0 J-0.8 
X207.712 Y487.712 I-0.176 J-0.176 
G00 Z10
(Esquisse 0)
G90X207.712 Y12.712
Z1
G01 Z-13 F400
G02 X208.065 Y13.065 I0.176 J0.176 F500
X208.3 Y12.5 I-0.565 J-0.565 
X207.5 Y11.7 I-0.8 J0 
X206.7 Y12.5 I0 J0.8 
X207.5 Y13.3 I0.8 J0 
X208.065 Y13.065 I0 J-0.8 
X207.712 Y12.712 I-0.176 J-0.176 
G00 Z10
(Esquisse 0)
G90X207.712 Y37.712
Z1
G01 Z-13 F400
G02 X208.065 Y38.065 I0.176 J0.176 F500
X208.3 Y37.5 I-0.565 J-0.565 
X207.5 Y36.7 I-0.8 J0 
X206.7 Y37.5 I0 J0.8 
X207.5 Y38.3 I0.8 J0 
X208.065 Y38.065 I0 J-0.8 
X207.712 Y37.712 I-0.176 J-0.176 
G00 Z10
(Esquisse 0)
G90X207.712 Y62.712
Z1
G01 Z-13 F400
G02 X208.065 Y63.065 I0.176 J0.176 F500
X208.3 Y62.5 I-0.565 J-0.565 
X207.5 Y61.7 I-0.8 J0 
X206.7 Y62.5 I0 J0.8 
X207.5 Y63.3 I0.8 J0 
X208.065 Y63.065 I0 J-0.8 
X207.712 Y62.712 I-0.176 J-0.176 
G00 Z10
(Esquisse 0)
G90X207.712 Y87.712
Z1
G01 Z-13 F400
G02 X208.065 Y88.065 I0.176 J0.176 F500
X208.3 Y87.5 I-0.565 J-0.565 
X207.5 Y86.7 I-0.8 J0 
X206.7 Y87.5 I0 J0.8 
X207.5 Y88.3 I0.8 J0 
X208.065 Y88.065 I0 J-0.8 
X207.712 Y87.712 I-0.176 J-0.176 
G00 Z10
(Esquisse 0)
G90X207.712 Y112.712
Z1
G01 Z-13 F400
G02 X208.065 Y113.065 I0.176 J0.176 F500
X208.3 Y112.5 I-0.565 J-0.565 
X207.5 Y111.7 I-0.8 J0 
X206.7 Y112.5 I0 J0.8 
X207.5 Y113.3 I0.8 J0 
X208.065 Y113.065 I0 J-0.8 
X207.712 Y112.712 I-0.176 J-0.176 
G00 Z10
(Esquisse 0)
G90X207.712 Y137.712
Z1
G01 Z-13 F400
G02 X208.065 Y138.065 I0.176 J0.176 F500
X208.3 Y137.5 I-0.565 J-0.565 
X207.5 Y136.7 I-0.8 J0 
X206.7 Y137.5 I0 J0.8 
X207.5 Y138.3 I0.8 J0 
X208.065 Y138.065 I0 J-0.8 
X207.712 Y137.712 I-0.176 J-0.176 
G00 Z10
(Esquisse 0)
G90X207.712 Y162.712
Z1
G01 Z-13 F400
G02 X208.065 Y163.065 I0.176 J0.176 F500
X208.3 Y162.5 I-0.565 J-0.565 
X207.5 Y161.7 I-0.8 J0 
X206.7 Y162.5 I0 J0.8 
X207.5 Y163.3 I0.8 J0 
X208.065 Y163.065 I0 J-0.8 
X207.712 Y162.712 I-0.176 J-0.176 
G00 Z10
(Esquisse 0)
G90X207.712 Y187.712
Z1
G01 Z-13 F400
G02 X208.065 Y188.065 I0.176 J0.176 F500
X208.3 Y187.5 I-0.565 J-0.565 
X207.5 Y186.7 I-0.8 J0 
X206.7 Y187.5 I0 J0.8 
X207.5 Y188.3 I0.8 J0 
X208.065 Y188.065 I0 J-0.8 
X207.712 Y187.712 I-0.176 J-0.176 
G00 Z10
(Esquisse 0)
G90X207.712 Y212.712
Z1
G01 Z-13 F400
G02 X208.065 Y213.065 I0.176 J0.176 F500
X208.3 Y212.5 I-0.565 J-0.565 
X207.5 Y211.7 I-0.8 J0 
X206.7 Y212.5 I0 J0.8 
X207.5 Y213.3 I0.8 J0 
X208.065 Y213.065 I0 J-0.8 
X207.712 Y212.712 I-0.176 J-0.176 
G00 Z10
(Esquisse 0)
G90X207.712 Y237.712
Z1
G01 Z-13 F400
G02 X208.065 Y238.065 I0.176 J0.176 F500
X208.3 Y237.5 I-0.565 J-0.565 
X207.5 Y236.7 I-0.8 J0 
X206.7 Y237.5 I0 J0.8 
X207.5 Y238.3 I0.8 J0 
X208.065 Y238.065 I0 J-0.8 
X207.712 Y237.712 I-0.176 J-0.176 
G00 Z10
(Esquisse 0)
G90X207.712 Y262.712
Z1
G01 Z-13 F400
G02 X208.065 Y263.065 I0.176 J0.176 F500
X208.3 Y262.5 I-0.565 J-0.565 
X207.5 Y261.7 I-0.8 J0 
X206.7 Y262.5 I0 J0.8 
X207.5 Y263.3 I0.8 J0 
X208.065 Y263.065 I0 J-0.8 
X207.712 Y262.712 I-0.176 J-0.176 
G00 Z10
(Esquisse 0)
G90X207.712 Y287.712
Z1
G01 Z-13 F400
G02 X208.065 Y288.065 I0.176 J0.176 F500
X208.3 Y287.5 I-0.565 J-0.565 
X207.5 Y286.7 I-0.8 J0 
X206.7 Y287.5 I0 J0.8 
X207.5 Y288.3 I0.8 J0 
X208.065 Y288.065 I0 J-0.8 
X207.712 Y287.712 I-0.176 J-0.176 
G00 Z10
(Esquisse 0)
G90X207.712 Y312.712
Z1
G01 Z-13 F400
G02 X208.065 Y313.065 I0.176 J0.176 F500
X208.3 Y312.5 I-0.565 J-0.565 
X207.5 Y311.7 I-0.8 J0 
X206.7 Y312.5 I0 J0.8 
X207.5 Y313.3 I0.8 J0 
X208.065 Y313.065 I0 J-0.8 
X207.712 Y312.712 I-0.176 J-0.176 
G00 Z10
(Esquisse 0)
G90X207.712 Y337.712
Z1
G01 Z-13 F400
G02 X208.065 Y338.065 I0.176 J0.176 F500
X208.3 Y337.5 I-0.565 J-0.565 
X207.5 Y336.7 I-0.8 J0 
X206.7 Y337.5 I0 J0.8 
X207.5 Y338.3 I0.8 J0 
X208.065 Y338.065 I0 J-0.8 
X207.712 Y337.712 I-0.176 J-0.176 
G00 Z10
(Esquisse 0)
G90X207.712 Y362.712
Z1
G01 Z-13 F400
G02 X208.065 Y363.065 I0.176 J0.176 F500
X208.3 Y362.5 I-0.565 J-0.565 
X207.5 Y361.7 I-0.8 J0 
X206.7 Y362.5 I0 J0.8 
X207.5 Y363.3 I0.8 J0 
X208.065 Y363.065 I0 J-0.8 
X207.712 Y362.712 I-0.176 J-0.176 
G00 Z10
(Esquisse 0)
G90X257.712 Y387.712
Z1
G01 Z-13 F400
G02 X258.065 Y388.065 I0.176 J0.176 F500
X258.3 Y387.5 I-0.565 J-0.565 
X257.5 Y386.7 I-0.8 J0 
X256.7 Y387.5 I0 J0.8 
X257.5 Y388.3 I0.8 J0 
X258.065 Y388.065 I0 J-0.8 
X257.712 Y387.712 I-0.176 J-0.176 
G00 Z10
(Esquisse 0)
G90X257.712 Y412.712
Z1
G01 Z-13 F400
G02 X258.065 Y413.065 I0.176 J0.176 F500
X258.3 Y412.5 I-0.565 J-0.565 
X257.5 Y411.7 I-0.8 J0 
X256.7 Y412.5 I0 J0.8 
X257.5 Y413.3 I0.8 J0 
X258.065 Y413.065 I0 J-0.8 
X257.712 Y412.712 I-0.176 J-0.176 
G00 Z10
(Esquisse 0)
G90X257.712 Y437.712
Z1
G01 Z-13 F400
G02 X258.065 Y438.065 I0.176 J0.176 F500
X258.3 Y437.5 I-0.565 J-0.565 
X257.5 Y436.7 I-0.8 J0 
X256.7 Y437.5 I0 J0.8 
X257.5 Y438.3 I0.8 J0 
X258.065 Y438.065 I0 J-0.8 
X257.712 Y437.712 I-0.176 J-0.176 
G00 Z10
(Esquisse 0)
G90X257.712 Y462.712
Z1
G01 Z-13 F400
G02 X258.065 Y463.065 I0.176 J0.176 F500
X258.3 Y462.5 I-0.565 J-0.565 
X257.5 Y461.7 I-0.8 J0 
X256.7 Y462.5 I0 J0.8 
X257.5 Y463.3 I0.8 J0 
X258.065 Y463.065 I0 J-0.8 
X257.712 Y462.712 I-0.176 J-0.176 
G00 Z10
(Esquisse 0)
G90X257.712 Y487.712
Z1
G01 Z-13 F400
G02 X258.065 Y488.065 I0.176 J0.176 F500
X258.3 Y487.5 I-0.565 J-0.565 
X257.5 Y486.7 I-0.8 J0 
X256.7 Y487.5 I0 J0.8 
X257.5 Y488.3 I0.8 J0 
X258.065 Y488.065 I0 J-0.8 
X257.712 Y487.712 I-0.176 J-0.176 
G00 Z10
(Esquisse 0)
G90X257.712 Y12.712
Z1
G01 Z-13 F400
G02 X258.065 Y13.065 I0.176 J0.176 F500
X258.3 Y12.5 I-0.565 J-0.565 
X257.5 Y11.7 I-0.8 J0 
X256.7 Y12.5 I0 J0.8 
X257.5 Y13.3 I0.8 J0 
X258.065 Y13.065 I0 J-0.8 
X257.712 Y12.712 I-0.176 J-0.176 
G00 Z10
(Esquisse 0)
G90X257.712 Y37.712
Z1
G01 Z-13 F400
G02 X258.065 Y38.065 I0.176 J0.176 F500
X258.3 Y37.5 I-0.565 J-0.565 
X257.5 Y36.7 I-0.8 J0 
X256.7 Y37.5 I0 J0.8 
X257.5 Y38.3 I0.8 J0 
X258.065 Y38.065 I0 J-0.8 
X257.712 Y37.712 I-0.176 J-0.176 
G00 Z10
(Esquisse 0)
G90X257.712 Y62.712
Z1
G01 Z-13 F400
G02 X258.065 Y63.065 I0.176 J0.176 F500
X258.3 Y62.5 I-0.565 J-0.565 
X257.5 Y61.7 I-0.8 J0 
X256.7 Y62.5 I0 J0.8 
X257.5 Y63.3 I0.8 J0 
X258.065 Y63.065 I0 J-0.8 
X257.712 Y62.712 I-0.176 J-0.176 
G00 Z10
(Esquisse 0)
G90X257.712 Y87.712
Z1
G01 Z-13 F400
G02 X258.065 Y88.065 I0.176 J0.176 F500
X258.3 Y87.5 I-0.565 J-0.565 
X257.5 Y86.7 I-0.8 J0 
X256.7 Y87.5 I0 J0.8 
X257.5 Y88.3 I0.8 J0 
X258.065 Y88.065 I0 J-0.8 
X257.712 Y87.712 I-0.176 J-0.176 
G00 Z10
(Esquisse 0)
G90X257.712 Y112.712
Z1
G01 Z-13 F400
G02 X258.065 Y113.065 I0.176 J0.176 F500
X258.3 Y112.5 I-0.565 J-0.565 
X257.5 Y111.7 I-0.8 J0 
X256.7 Y112.5 I0 J0.8 
X257.5 Y113.3 I0.8 J0 
X258.065 Y113.065 I0 J-0.8 
X257.712 Y112.712 I-0.176 J-0.176 
G00 Z10
(Esquisse 0)
G90X257.712 Y137.712
Z1
G01 Z-13 F400
G02 X258.065 Y138.065 I0.176 J0.176 F500
X258.3 Y137.5 I-0.565 J-0.565 
X257.5 Y136.7 I-0.8 J0 
X256.7 Y137.5 I0 J0.8 
X257.5 Y138.3 I0.8 J0 
X258.065 Y138.065 I0 J-0.8 
X257.712 Y137.712 I-0.176 J-0.176 
G00 Z10
(Esquisse 0)
G90X257.712 Y162.712
Z1
G01 Z-13 F400
G02 X258.065 Y163.065 I0.176 J0.176 F500
X258.3 Y162.5 I-0.565 J-0.565 
X257.5 Y161.7 I-0.8 J0 
X256.7 Y162.5 I0 J0.8 
X257.5 Y163.3 I0.8 J0 
X258.065 Y163.065 I0 J-0.8 
X257.712 Y162.712 I-0.176 J-0.176 
G00 Z10
(Esquisse 0)
G90X257.712 Y187.712
Z1
G01 Z-13 F400
G02 X258.065 Y188.065 I0.176 J0.176 F500
X258.3 Y187.5 I-0.565 J-0.565 
X257.5 Y186.7 I-0.8 J0 
X256.7 Y187.5 I0 J0.8 
X257.5 Y188.3 I0.8 J0 
X258.065 Y188.065 I0 J-0.8 
X257.712 Y187.712 I-0.176 J-0.176 
G00 Z10
(Esquisse 0)
G90X257.712 Y212.712
Z1
G01 Z-13 F400
G02 X258.065 Y213.065 I0.176 J0.176 F500
X258.3 Y212.5 I-0.565 J-0.565 
X257.5 Y211.7 I-0.8 J0 
X256.7 Y212.5 I0 J0.8 
X257.5 Y213.3 I0.8 J0 
X258.065 Y213.065 I0 J-0.8 
X257.712 Y212.712 I-0.176 J-0.176 
G00 Z10
(Esquisse 0)
G90X257.712 Y237.712
Z1
G01 Z-13 F400
G02 X258.065 Y238.065 I0.176 J0.176 F500
X258.3 Y237.5 I-0.565 J-0.565 
X257.5 Y236.7 I-0.8 J0 
X256.7 Y237.5 I0 J0.8 
X257.5 Y238.3 I0.8 J0 
X258.065 Y238.065 I0 J-0.8 
X257.712 Y237.712 I-0.176 J-0.176 
G00 Z10
(Esquisse 0)
G90X257.712 Y262.712
Z1
G01 Z-13 F400
G02 X258.065 Y263.065 I0.176 J0.176 F500
X258.3 Y262.5 I-0.565 J-0.565 
X257.5 Y261.7 I-0.8 J0 
X256.7 Y262.5 I0 J0.8 
X257.5 Y263.3 I0.8 J0 
X258.065 Y263.065 I0 J-0.8 
X257.712 Y262.712 I-0.176 J-0.176 
G00 Z10
(Esquisse 0)
G90X257.712 Y287.712
Z1
G01 Z-13 F400
G02 X258.065 Y288.065 I0.176 J0.176 F500
X258.3 Y287.5 I-0.565 J-0.565 
X257.5 Y286.7 I-0.8 J0 
X256.7 Y287.5 I0 J0.8 
X257.5 Y288.3 I0.8 J0 
X258.065 Y288.065 I0 J-0.8 
X257.712 Y287.712 I-0.176 J-0.176 
G00 Z10
(Esquisse 0)
G90X257.712 Y312.712
Z1
G01 Z-13 F400
G02 X258.065 Y313.065 I0.176 J0.176 F500
X258.3 Y312.5 I-0.565 J-0.565 
X257.5 Y311.7 I-0.8 J0 
X256.7 Y312.5 I0 J0.8 
X257.5 Y313.3 I0.8 J0 
X258.065 Y313.065 I0 J-0.8 
X257.712 Y312.712 I-0.176 J-0.176 
G00 Z10
(Esquisse 0)
G90X257.712 Y337.712
Z1
G01 Z-13 F400
G02 X258.065 Y338.065 I0.176 J0.176 F500
X258.3 Y337.5 I-0.565 J-0.565 
X257.5 Y336.7 I-0.8 J0 
X256.7 Y337.5 I0 J0.8 
X257.5 Y338.3 I0.8 J0 
X258.065 Y338.065 I0 J-0.8 
X257.712 Y337.712 I-0.176 J-0.176 
G00 Z10
(Esquisse 0)
G90X257.712 Y362.712
Z1
G01 Z-13 F400
G02 X258.065 Y363.065 I0.176 J0.176 F500
X258.3 Y362.5 I-0.565 J-0.565 
X257.5 Y361.7 I-0.8 J0 
X256.7 Y362.5 I0 J0.8 
X257.5 Y363.3 I0.8 J0 
X258.065 Y363.065 I0 J-0.8 
X257.712 Y362.712 I-0.176 J-0.176 
G00 Z10
(Esquisse 0)
G90X307.712 Y487.712
Z1
G01 Z-13 F400
G02 X308.065 Y488.065 I0.176 J0.176 F500
X308.3 Y487.5 I-0.565 J-0.565 
X307.5 Y486.7 I-0.8 J0 
X306.7 Y487.5 I0 J0.8 
X307.5 Y488.3 I0.8 J0 
X308.065 Y488.065 I0 J-0.8 
X307.712 Y487.712 I-0.176 J-0.176 
G00 Z10
(Esquisse 0)
G90X307.712 Y462.712
Z1
G01 Z-13 F400
G02 X308.065 Y463.065 I0.176 J0.176 F500
X308.3 Y462.5 I-0.565 J-0.565 
X307.5 Y461.7 I-0.8 J0 
X306.7 Y462.5 I0 J0.8 
X307.5 Y463.3 I0.8 J0 
X308.065 Y463.065 I0 J-0.8 
X307.712 Y462.712 I-0.176 J-0.176 
G00 Z10
(Esquisse 0)
G90X307.712 Y437.712
Z1
G01 Z-13 F400
G02 X308.065 Y438.065 I0.176 J0.176 F500
X308.3 Y437.5 I-0.565 J-0.565 
X307.5 Y436.7 I-0.8 J0 
X306.7 Y437.5 I0 J0.8 
X307.5 Y438.3 I0.8 J0 
X308.065 Y438.065 I0 J-0.8 
X307.712 Y437.712 I-0.176 J-0.176 
G00 Z10
(Esquisse 0)
G90X307.712 Y412.712
Z1
G01 Z-13 F400
G02 X308.065 Y413.065 I0.176 J0.176 F500
X308.3 Y412.5 I-0.565 J-0.565 
X307.5 Y411.7 I-0.8 J0 
X306.7 Y412.5 I0 J0.8 
X307.5 Y413.3 I0.8 J0 
X308.065 Y413.065 I0 J-0.8 
X307.712 Y412.712 I-0.176 J-0.176 
G00 Z10
(Esquisse 0)
G90X307.712 Y387.712
Z1
G01 Z-13 F400
G02 X308.065 Y388.065 I0.176 J0.176 F500
X308.3 Y387.5 I-0.565 J-0.565 
X307.5 Y386.7 I-0.8 J0 
X306.7 Y387.5 I0 J0.8 
X307.5 Y388.3 I0.8 J0 
X308.065 Y388.065 I0 J-0.8 
X307.712 Y387.712 I-0.176 J-0.176 
G00 Z10
(Esquisse 0)
G90X307.712 Y362.712
Z1
G01 Z-13 F400
G02 X308.065 Y363.065 I0.176 J0.176 F500
X308.3 Y362.5 I-0.565 J-0.565 
X307.5 Y361.7 I-0.8 J0 
X306.7 Y362.5 I0 J0.8 
X307.5 Y363.3 I0.8 J0 
X308.065 Y363.065 I0 J-0.8 
X307.712 Y362.712 I-0.176 J-0.176 
G00 Z10
(Esquisse 0)
G90X307.712 Y337.712
Z1
G01 Z-13 F400
G02 X308.065 Y338.065 I0.176 J0.176 F500
X308.3 Y337.5 I-0.565 J-0.565 
X307.5 Y336.7 I-0.8 J0 
X306.7 Y337.5 I0 J0.8 
X307.5 Y338.3 I0.8 J0 
X308.065 Y338.065 I0 J-0.8 
X307.712 Y337.712 I-0.176 J-0.176 
G00 Z10
(Esquisse 0)
G90X307.712 Y312.712
Z1
G01 Z-13 F400
G02 X308.065 Y313.065 I0.176 J0.176 F500
X308.3 Y312.5 I-0.565 J-0.565 
X307.5 Y311.7 I-0.8 J0 
X306.7 Y312.5 I0 J0.8 
X307.5 Y313.3 I0.8 J0 
X308.065 Y313.065 I0 J-0.8 
X307.712 Y312.712 I-0.176 J-0.176 
G00 Z10
(Esquisse 0)
G90X307.712 Y287.712
Z1
G01 Z-13 F400
G02 X308.065 Y288.065 I0.176 J0.176 F500
X308.3 Y287.5 I-0.565 J-0.565 
X307.5 Y286.7 I-0.8 J0 
X306.7 Y287.5 I0 J0.8 
X307.5 Y288.3 I0.8 J0 
X308.065 Y288.065 I0 J-0.8 
X307.712 Y287.712 I-0.176 J-0.176 
G00 Z10
(Esquisse 0)
G90X307.712 Y262.712
Z1
G01 Z-13 F400
G02 X308.065 Y263.065 I0.176 J0.176 F500
X308.3 Y262.5 I-0.565 J-0.565 
X307.5 Y261.7 I-0.8 J0 
X306.7 Y262.5 I0 J0.8 
X307.5 Y263.3 I0.8 J0 
X308.065 Y263.065 I0 J-0.8 
X307.712 Y262.712 I-0.176 J-0.176 
G00 Z10
(Esquisse 0)
G90X307.712 Y237.712
Z1
G01 Z-13 F400
G02 X308.065 Y238.065 I0.176 J0.176 F500
X308.3 Y237.5 I-0.565 J-0.565 
X307.5 Y236.7 I-0.8 J0 
X306.7 Y237.5 I0 J0.8 
X307.5 Y238.3 I0.8 J0 
X308.065 Y238.065 I0 J-0.8 
X307.712 Y237.712 I-0.176 J-0.176 
G00 Z10
(Esquisse 0)
G90X307.712 Y212.712
Z1
G01 Z-13 F400
G02 X308.065 Y213.065 I0.176 J0.176 F500
X308.3 Y212.5 I-0.565 J-0.565 
X307.5 Y211.7 I-0.8 J0 
X306.7 Y212.5 I0 J0.8 
X307.5 Y213.3 I0.8 J0 
X308.065 Y213.065 I0 J-0.8 
X307.712 Y212.712 I-0.176 J-0.176 
G00 Z10
(Esquisse 0)
G90X307.712 Y187.712
Z1
G01 Z-13 F400
G02 X308.065 Y188.065 I0.176 J0.176 F500
X308.3 Y187.5 I-0.565 J-0.565 
X307.5 Y186.7 I-0.8 J0 
X306.7 Y187.5 I0 J0.8 
X307.5 Y188.3 I0.8 J0 
X308.065 Y188.065 I0 J-0.8 
X307.712 Y187.712 I-0.176 J-0.176 
G00 Z10
(Esquisse 0)
G90X307.712 Y162.712
Z1
G01 Z-13 F400
G02 X308.065 Y163.065 I0.176 J0.176 F500
X308.3 Y162.5 I-0.565 J-0.565 
X307.5 Y161.7 I-0.8 J0 
X306.7 Y162.5 I0 J0.8 
X307.5 Y163.3 I0.8 J0 
X308.065 Y163.065 I0 J-0.8 
X307.712 Y162.712 I-0.176 J-0.176 
G00 Z10
(Esquisse 0)
G90X307.712 Y137.712
Z1
G01 Z-13 F400
G02 X308.065 Y138.065 I0.176 J0.176 F500
X308.3 Y137.5 I-0.565 J-0.565 
X307.5 Y136.7 I-0.8 J0 
X306.7 Y137.5 I0 J0.8 
X307.5 Y138.3 I0.8 J0 
X308.065 Y138.065 I0 J-0.8 
X307.712 Y137.712 I-0.176 J-0.176 
G00 Z10
(Esquisse 0)
G90X307.712 Y112.712
Z1
G01 Z-13 F400
G02 X308.065 Y113.065 I0.176 J0.176 F500
X308.3 Y112.5 I-0.565 J-0.565 
X307.5 Y111.7 I-0.8 J0 
X306.7 Y112.5 I0 J0.8 
X307.5 Y113.3 I0.8 J0 
X308.065 Y113.065 I0 J-0.8 
X307.712 Y112.712 I-0.176 J-0.176 
G00 Z10
(Esquisse 0)
G90X307.712 Y87.712
Z1
G01 Z-13 F400
G02 X308.065 Y88.065 I0.176 J0.176 F500
X308.3 Y87.5 I-0.565 J-0.565 
X307.5 Y86.7 I-0.8 J0 
X306.7 Y87.5 I0 J0.8 
X307.5 Y88.3 I0.8 J0 
X308.065 Y88.065 I0 J-0.8 
X307.712 Y87.712 I-0.176 J-0.176 
G00 Z10
(Esquisse 0)
G90X307.712 Y62.712
Z1
G01 Z-13 F400
G02 X308.065 Y63.065 I0.176 J0.176 F500
X308.3 Y62.5 I-0.565 J-0.565 
X307.5 Y61.7 I-0.8 J0 
X306.7 Y62.5 I0 J0.8 
X307.5 Y63.3 I0.8 J0 
X308.065 Y63.065 I0 J-0.8 
X307.712 Y62.712 I-0.176 J-0.176 
G00 Z10
(Esquisse 0)
G90X307.712 Y37.712
Z1
G01 Z-13 F400
G02 X308.065 Y38.065 I0.176 J0.176 F500
X308.3 Y37.5 I-0.565 J-0.565 
X307.5 Y36.7 I-0.8 J0 
X306.7 Y37.5 I0 J0.8 
X307.5 Y38.3 I0.8 J0 
X308.065 Y38.065 I0 J-0.8 
X307.712 Y37.712 I-0.176 J-0.176 
G00 Z10
(Esquisse 0)
G90X307.712 Y12.712
Z1
G01 Z-13 F400
G02 X308.065 Y13.065 I0.176 J0.176 F500
X308.3 Y12.5 I-0.565 J-0.565 
X307.5 Y11.7 I-0.8 J0 
X306.7 Y12.5 I0 J0.8 
X307.5 Y13.3 I0.8 J0 
X308.065 Y13.065 I0 J-0.8 
X307.712 Y12.712 I-0.176 J-0.176 
G00 Z10
G90
(ENTITIES ext)
X343.5 Y250 S7000 M03
Z1
G01 Z-1.909 F100
G02 X343 Y250 I-0.25 J0 F700
G01 X343 Y494 Z-1.909 
G03 X334 Y503 Z-1.909 I-9 J0 
G01 X6 Y503 Z-1.909 
G03 X-3 Y494 Z-1.909 I0 J-9 
G01 X-3 Y16 Z-1.909 
G03 X6 Y7 Z-1.909 I9 J0 
G01 X74 Y7 Z-1.909 
G02 X81 Y0 Z-1.909 I0 J-7 
G03 X84 Y-3 Z-1.909 I3 J0 
G01 X334 Y-3 Z-1.909 
G03 X343 Y6 Z-1.909 I0 J9 
G01 X343 Y250 Z-1.909 
G02 X343.5 Y250 I0.25 J0 
G01 Z-3.818 F100
G02 X343 Y250 I-0.25 J0 F700
G01 X343 Y494 Z-3.818 
G03 X334 Y503 Z-3.818 I-9 J0 
G01 X6 Y503 Z-3.818 
G03 X-3 Y494 Z-3.818 I0 J-9 
G01 X-3 Y16 Z-3.818 
G03 X6 Y7 Z-3.818 I9 J0 
G01 X74 Y7 Z-3.818 
G02 X81 Y0 Z-3.818 I0 J-7 
G03 X84 Y-3 Z-3.818 I3 J0 
G01 X334 Y-3 Z-3.818 
G03 X343 Y6 Z-3.818 I0 J9 
G01 X343 Y250 Z-3.818 
G02 X343.5 Y250 I0.25 J0 
G01 Z-5.727 F100
G02 X343 Y250 I-0.25 J0 F700
G01 X343 Y494 Z-5.727 
G03 X334 Y503 Z-5.727 I-9 J0 
G01 X6 Y503 Z-5.727 
G03 X-3 Y494 Z-5.727 I0 J-9 
G01 X-3 Y16 Z-5.727 
G03 X6 Y7 Z-5.727 I9 J0 
G01 X74 Y7 Z-5.727 
G02 X81 Y0 Z-5.727 I0 J-7 
G03 X84 Y-3 Z-5.727 I3 J0 
G01 X334 Y-3 Z-5.727 
G03 X343 Y6 Z-5.727 I0 J9 
G01 X343 Y250 Z-5.727 
G02 X343.5 Y250 I0.25 J0 
G01 Z-7.636 F100
G02 X343 Y250 I-0.25 J0 F700
G01 X343 Y494 Z-7.636 
G03 X334 Y503 Z-7.636 I-9 J0 
G01 X6 Y503 Z-7.636 
G03 X-3 Y494 Z-7.636 I0 J-9 
G01 X-3 Y16 Z-7.636 
G03 X6 Y7 Z-7.636 I9 J0 
G01 X74 Y7 Z-7.636 
G02 X81 Y0 Z-7.636 I0 J-7 
G03 X84 Y-3 Z-7.636 I3 J0 
G01 X334 Y-3 Z-7.636 
G03 X343 Y6 Z-7.636 I0 J9 
G01 X343 Y250 Z-7.636 
G02 X343.5 Y250 I0.25 J0 
G01 Z-9.545 F100
G02 X343 Y250 I-0.25 J0 F700
G01 X343 Y494 Z-9.545 
G03 X334 Y503 Z-9.545 I-9 J0 
G01 X6 Y503 Z-9.545 
G03 X-3 Y494 Z-9.545 I0 J-9 
G01 X-3 Y16 Z-9.545 
G03 X6 Y7 Z-9.545 I9 J0 
G01 X74 Y7 Z-9.545 
G02 X81 Y0 Z-9.545 I0 J-7 
G03 X84 Y-3 Z-9.545 I3 J0 
G01 X334 Y-3 Z-9.545 
G03 X343 Y6 Z-9.545 I0 J9 
G01 X343 Y250 Z-9.545 
G02 X343.5 Y250 I0.25 J0 
G01 Z-11.454 F100
G02 X343 Y250 I-0.25 J0 F700
G01 X343 Y494 Z-11.454 
G03 X334 Y503 Z-11.454 I-9 J0 
G01 X6 Y503 Z-11.454 
G03 X-3 Y494 Z-11.454 I0 J-9 
G01 X-3 Y16 Z-11.454 
G03 X6 Y7 Z-11.454 I9 J0 
G01 X74 Y7 Z-11.454 
G02 X81 Y0 Z-11.454 I0 J-7 
G03 X84 Y-3 Z-11.454 I3 J0 
G01 X334 Y-3 Z-11.454 
G03 X343 Y6 Z-11.454 I0 J9 
G01 X343 Y250 Z-11.454 
G02 X343.5 Y250 I0.25 J0 
G01 Z-13.363 F100
G02 X343 Y250 I-0.25 J0 F700
G01 X343 Y494 Z-13.363 
G03 X334 Y503 Z-13.363 I-9 J0 
G01 X6 Y503 Z-13.363 
G03 X-3 Y494 Z-13.363 I0 J-9 
G01 X-3 Y16 Z-13.363 
G03 X6 Y7 Z-13.363 I9 J0 
G01 X74 Y7 Z-13.363 
G02 X81 Y0 Z-13.363 I0 J-7 
G03 X84 Y-3 Z-13.363 I3 J0 
G01 X334 Y-3 Z-13.363 
G03 X343 Y6 Z-13.363 I0 J9 
G01 X343 Y250 Z-13.363 
G02 X343.5 Y250 I0.25 J0 
G01 Z-15.272 F100
G02 X343 Y250 I-0.25 J0 F700
G01 X343 Y494 Z-15.272 
G03 X334 Y503 Z-15.272 I-9 J0 
G01 X6 Y503 Z-15.272 
G03 X-3 Y494 Z-15.272 I0 J-9 
G01 X-3 Y16 Z-15.272 
G03 X6 Y7 Z-15.272 I9 J0 
G01 X74 Y7 Z-15.272 
G02 X81 Y0 Z-15.272 I0 J-7 
G03 X84 Y-3 Z-15.272 I3 J0 
G01 X334 Y-3 Z-15.272 
G03 X343 Y6 Z-15.272 I0 J9 
G01 X343 Y250 Z-15.272 
G02 X343.5 Y250 I0.25 J0 
G01 Z-17.181 F100
G02 X343 Y250 I-0.25 J0 F700
G01 X343 Y494 Z-17.181 
G03 X334 Y503 Z-17.181 I-9 J0 
G01 X6 Y503 Z-17.181 
G03 X-3 Y494 Z-17.181 I0 J-9 
G01 X-3 Y16 Z-17.181 
G03 X6 Y7 Z-17.181 I9 J0 
G01 X74 Y7 Z-17.181 
G02 X81 Y0 Z-17.181 I0 J-7 
G03 X84 Y-3 Z-17.181 I3 J0 
G01 X334 Y-3 Z-17.181 
G03 X343 Y6 Z-17.181 I0 J9 
G01 X343 Y250 Z-17.181 
G02 X343.5 Y250 I0.25 J0 
G01 Z-19.09 F100
G02 X343 Y250 I-0.25 J0 F700
G01 X343 Y257.702 Z-19.09 
X343 Y257.793 Z-19 
X343 Y273.793 Z-19 
X343 Y273.884 Z-19.09 
X343 Y494 Z-19.09 
G03 X334 Y503 Z-19.09 I-9 J0 
G01 X188.711 Y503 Z-19.09 
X188.62 Y503 Z-19 
X172.62 Y503 Z-19 
X172.529 Y503 Z-19.09 
X6 Y503 Z-19.09 
G03 X-3 Y494 Z-19.09 I0 J-9 
G01 X-3 Y283.648 Z-19.09 
X-3 Y283.557 Z-19 
X-3 Y267.557 Z-19 
X-3 Y267.466 Z-19.09 
X-3 Y16 Z-19.09 
G03 X6 Y7 Z-19.09 I9 J0 
G01 X74 Y7 Z-19.09 
G02 X81 Y0 Z-19.09 I0 J-7 
G03 X84 Y-3 Z-19.09 I3 J0 
G01 X133.446 Y-3 Z-19.09 
X133.537 Y-3 Z-19 
X149.537 Y-3 Z-19 
X149.628 Y-3 Z-19.09 
X334 Y-3 Z-19.09 
G03 X343 Y6 Z-19.09 I0 J9 
G01 X343 Y250 Z-19.09 
G02 X343.5 Y250 I0.25 J0 
G01 Z-21 F100
G02 X343 Y250 I-0.25 J0 F700
G01 X343 Y255.793 Z-21 
X343 Y257.793 Z-19 
X343 Y273.793 Z-19 
X343 Y275.793 Z-21 
X343 Y494 Z-21 
G03 X334 Y503 Z-21 I-9 J0 
G01 X190.62 Y503 Z-21 
X188.62 Y503 Z-19 
X172.62 Y503 Z-19 
X170.62 Y503 Z-21 
X6 Y503 Z-21 
G03 X-3 Y494 Z-21 I0 J-9 
G01 X-3 Y285.557 Z-21 
X-3 Y283.557 Z-19 
X-3 Y267.557 Z-19 
X-3 Y265.557 Z-21 
X-3 Y16 Z-21 
G03 X6 Y7 Z-21 I9 J0 
G01 X74 Y7 Z-21 
G02 X81 Y0 Z-21 I0 J-7 
G03 X84 Y-3 Z-21 I3 J0 
G01 X131.537 Y-3 Z-21 
X133.537 Y-3 Z-19 
X149.537 Y-3 Z-19 
X151.537 Y-3 Z-21 
X334 Y-3 Z-21 
G03 X343 Y6 Z-21 I0 J9 
G01 X343 Y250 Z-21 
G02 X343.5 Y250 I0.25 J0 
G00 Z10
T0 M06 M02
